;FLAVOR:Marlin
;TIME:3031
;Filament used: 1.47041m
;Layer height: 0.12
;MINX:89
;MINY:89
;MINZ:0.12
;MAXX:131
;MAXY:131
;MAXZ:20.04
;TARGET_MACHINE.NAME:Creality Ender-3 Pro
;Generated with Cura_SteamEngine 5.7.0
M82 ;absolute extrusion mode
; Ender 3 Custom Start G-code
G92 E0 ; Reset Extruder
G28 ; Home all axes
G1 Z5.0 F3000 ; Move Z Axis up a bit during heating to not damage bed
M104 S175 ; Start heating up the nozzle most of the way
M190 S60 ; Start heating the bed, wait until target temperature reached
M109 S200 ; Finish heating the nozzle
G1 Z2.0 F3000 ; Move Z Axis up little to prevent scratching of Heat Bed
G1 X0.1 Y20 Z0.3 F5000.0 ; Move to start position
G1 X0.1 Y200.0 Z0.3 F1500.0 E15 ; Draw the first line
G1 X0.4 Y200.0 Z0.3 F5000.0 ; Move to side a little
G1 X0.4 Y20 Z0.3 F1500.0 E30 ; Draw the second line
G92 E0 ; Reset Extruder
G1 Z2.0 F3000 ; Move Z Axis up little to prevent scratching of Heat Bed
G1 X5 Y20 Z0.3 F5000.0 ; Move over to prevent blob squish
G92 E0
G92 E0
G1 F1500 E-6.5
;LAYER_COUNT:167
;LAYER:0
M107
G0 F6000 X92.456 Y92.013 Z0.12
;TYPE:SKIRT
G1 F1500 E0
G1 F1200 X93.192 Y91.376 E0.01942
G1 X93.924 Y90.846 E0.03746
G1 X94.821 Y90.311 E0.0583
G1 X95.699 Y89.89 E0.07773
G1 X96.612 Y89.548 E0.09719
G1 X97.549 Y89.289 E0.11659
G1 X98.516 Y89.111 E0.13621
G1 X99.655 Y89.015 E0.15902
G1 X100.312 Y89 E0.17214
G1 X119.304 Y89 E0.55114
G1 X120.184 Y89.013 E0.56871
G1 X121.156 Y89.072 E0.58814
G1 X122.119 Y89.218 E0.60758
G1 X123.066 Y89.449 E0.62703
G1 X123.954 Y89.749 E0.64573
G1 X124.846 Y90.139 E0.66516
G1 X125.729 Y90.626 E0.68529
G1 X126.48 Y91.128 E0.70331
G1 X127.295 Y91.786 E0.72422
G1 X127.993 Y92.464 E0.74363
G1 X128.629 Y93.201 E0.76306
G1 X129.199 Y93.991 E0.7825
G1 X129.661 Y94.767 E0.80052
G1 X130.115 Y95.709 E0.82139
G1 X130.444 Y96.587 E0.8401
G1 X130.713 Y97.559 E0.86023
G1 X130.89 Y98.525 E0.87983
G1 X130.985 Y99.655 E0.90246
G1 X131 Y100.33 E0.91593
G1 X130.999 Y119.4 E1.29649
G1 X130.988 Y120.163 E1.31172
G1 X130.931 Y121.136 E1.33117
G1 X130.786 Y122.099 E1.35061
G1 X130.557 Y123.045 E1.37003
G1 X130.246 Y123.969 E1.38949
G1 X129.854 Y124.86 E1.40891
G1 X129.386 Y125.712 E1.42831
G1 X128.864 Y126.493 E1.44706
G1 X128.231 Y127.278 E1.46718
G1 X127.606 Y127.929 E1.48519
G1 X126.817 Y128.617 E1.50608
G1 X126.057 Y129.167 E1.5248
G1 X125.19 Y129.684 E1.54495
G1 X124.312 Y130.106 E1.56439
G1 X123.401 Y130.448 E1.58381
G1 X122.462 Y130.709 E1.60326
G1 X121.496 Y130.887 E1.62286
G1 X120.345 Y130.985 E1.64591
G1 X119.67 Y131 E1.65939
G1 X100.564 Y130.999 E2.04067
G1 X99.831 Y130.988 E2.0553
G1 X98.859 Y130.931 E2.07473
G1 X97.896 Y130.785 E2.09416
G1 X96.95 Y130.556 E2.11359
G1 X96.026 Y130.244 E2.13305
G1 X95.136 Y129.852 E2.15246
G1 X94.313 Y129.401 E2.17119
G1 X93.474 Y128.84 E2.19133
G1 X92.77 Y128.274 E2.20935
G1 X92.017 Y127.549 E2.23021
G1 X91.38 Y126.813 E2.24964
G1 X90.85 Y126.082 E2.26766
G1 X90.314 Y125.185 E2.28851
G1 X89.892 Y124.307 E2.30795
G1 X89.55 Y123.395 E2.32739
G1 X89.29 Y122.457 E2.34681
G1 X89.112 Y121.488 E2.36647
G1 X89.014 Y120.309 E2.39008
G1 X89 Y119.658 E2.40308
G1 X89.001 Y100.525 E2.7849
G1 X89.012 Y99.825 E2.79887
G1 X89.07 Y98.852 E2.81832
G1 X89.216 Y97.889 E2.83776
G1 X89.446 Y96.943 E2.85718
G1 X89.759 Y96.02 E2.87663
G1 X90.151 Y95.13 E2.89604
G1 X90.621 Y94.277 E2.91548
G1 X91.164 Y93.469 E2.9349
G1 X91.731 Y92.765 E2.95294
G1 X92.456 Y92.013 E2.97379
G0 F6000 X92.718 Y92.315
G1 F1200 X93.427 Y91.7 E2.99252
G1 X94.159 Y91.17 E3.01055
G1 X94.995 Y90.671 E3.02998
G1 X95.84 Y90.264 E3.0487
G1 X96.719 Y89.933 E3.06744
G1 X97.622 Y89.682 E3.08615
G1 X98.55 Y89.51 E3.10498
G1 X99.689 Y89.414 E3.12779
G1 X100.321 Y89.4 E3.14041
G1 X119.298 Y89.4 E3.51912
G1 X120.16 Y89.412 E3.53632
G1 X121.097 Y89.468 E3.55505
G1 X122.025 Y89.607 E3.57378
G1 X122.938 Y89.828 E3.59252
G1 X123.794 Y90.116 E3.61055
G1 X124.686 Y90.506 E3.62997
G1 X125.507 Y90.959 E3.64869
G1 X126.258 Y91.461 E3.66671
G1 X127.017 Y92.073 E3.68617
G1 X127.691 Y92.726 E3.7049
G1 X128.305 Y93.435 E3.72362
G1 X128.855 Y94.196 E3.74235
G1 X129.317 Y94.972 E3.76038
G1 X129.74 Y95.849 E3.77981
G1 X130.069 Y96.727 E3.79852
G1 X130.32 Y97.632 E3.81726
G1 X130.491 Y98.559 E3.83607
G1 X130.586 Y99.689 E3.8587
G1 X130.6 Y100.33 E3.8715
G1 X130.599 Y119.395 E4.25196
G1 X130.589 Y120.14 E4.26683
G1 X130.535 Y121.077 E4.28556
G1 X130.397 Y122.006 E4.3043
G1 X130.178 Y122.918 E4.32302
G1 X129.88 Y123.808 E4.34175
G1 X129.503 Y124.668 E4.36049
G1 X129.053 Y125.49 E4.37919
G1 X128.531 Y126.271 E4.39793
G1 X127.942 Y127.001 E4.41665
G1 X127.317 Y127.652 E4.43466
G1 X126.582 Y128.293 E4.45412
G1 X125.822 Y128.843 E4.47285
G1 X125.016 Y129.324 E4.49158
G1 X124.171 Y129.732 E4.5103
G1 X123.293 Y130.063 E4.52903
G1 X122.389 Y130.316 E4.54776
G1 X121.462 Y130.488 E4.56658
G1 X120.311 Y130.586 E4.58963
G1 X119.67 Y130.6 E4.60242
G1 X100.57 Y130.599 E4.98358
G1 X99.854 Y130.589 E4.99787
G1 X98.918 Y130.535 E5.01658
G1 X97.989 Y130.396 E5.03533
G1 X97.077 Y130.177 E5.05405
G1 X96.187 Y129.878 E5.07278
G1 X95.328 Y129.501 E5.0915
G1 X94.505 Y129.05 E5.11023
G1 X93.725 Y128.528 E5.12896
G1 X93.021 Y127.962 E5.14699
G1 X92.319 Y127.287 E5.16642
G1 X91.704 Y126.578 E5.18515
G1 X91.174 Y125.847 E5.20317
G1 X90.674 Y125.011 E5.22261
G1 X90.266 Y124.166 E5.24134
G1 X89.935 Y123.288 E5.26006
G1 X89.683 Y122.384 E5.27879
G1 X89.511 Y121.455 E5.29765
G1 X89.413 Y120.276 E5.32125
G1 X89.4 Y119.658 E5.33359
G1 X89.401 Y100.531 E5.71529
G1 X89.411 Y99.848 E5.72892
G1 X89.466 Y98.911 E5.74765
G1 X89.605 Y97.983 E5.76638
G1 X89.825 Y97.071 E5.7851
G1 X90.125 Y96.181 E5.80384
G1 X90.502 Y95.322 E5.82256
G1 X90.953 Y94.5 E5.84127
G1 X91.476 Y93.72 E5.86002
G1 X92.043 Y93.016 E5.87805
G1 X92.718 Y92.315 E5.89747
G0 F6000 X92.981 Y92.617
G1 F1200 X93.662 Y92.024 E5.9155
G1 X94.394 Y91.494 E5.93353
G1 X95.169 Y91.031 E5.95155
G1 X95.982 Y90.638 E5.96957
G1 X96.827 Y90.318 E5.9876
G1 X97.696 Y90.075 E6.0056
G1 X98.584 Y89.909 E6.02363
G1 X99.723 Y89.813 E6.04644
G1 X100.33 Y89.8 E6.05856
G1 X119.293 Y89.8 E6.43699
G1 X120.137 Y89.811 E6.45383
G1 X121.039 Y89.864 E6.47186
G1 X121.932 Y89.996 E6.48988
G1 X122.81 Y90.207 E6.5079
G1 X123.666 Y90.495 E6.52592
G1 X124.493 Y90.857 E6.54394
G1 X125.285 Y91.292 E6.56197
G1 X126.036 Y91.794 E6.58
G1 X126.739 Y92.361 E6.59802
G1 X127.389 Y92.988 E6.61604
G1 X127.981 Y93.67 E6.63406
G1 X128.511 Y94.401 E6.65208
G1 X128.973 Y95.177 E6.67011
G1 X129.366 Y95.99 E6.68813
G1 X129.684 Y96.835 E6.70614
G1 X129.927 Y97.705 E6.72417
G1 X130.092 Y98.593 E6.74219
G1 X130.187 Y99.723 E6.76482
G1 X130.2 Y100.33 E6.77694
G1 X130.199 Y119.39 E7.1573
G1 X130.19 Y120.117 E7.17181
G1 X130.139 Y121.019 E7.18984
G1 X130.008 Y121.913 E7.20787
G1 X129.799 Y122.791 E7.22588
G1 X129.513 Y123.648 E7.24391
G1 X129.152 Y124.476 E7.26194
G1 X128.72 Y125.268 E7.27994
G1 X128.219 Y126.02 E7.29797
G1 X127.653 Y126.724 E7.316
G1 X127.028 Y127.375 E7.33401
G1 X126.347 Y127.969 E7.35204
G1 X125.616 Y128.5 E7.37007
G1 X124.842 Y128.964 E7.38808
G1 X124.029 Y129.358 E7.40611
G1 X123.185 Y129.678 E7.42413
G1 X122.315 Y129.923 E7.44216
G1 X121.428 Y130.089 E7.46017
G1 X120.277 Y130.187 E7.48322
G1 X119.67 Y130.2 E7.49534
G1 X100.575 Y130.199 E7.8764
G1 X99.877 Y130.19 E7.89033
G1 X98.976 Y130.139 E7.90834
G1 X98.082 Y130.007 E7.92637
G1 X97.204 Y129.798 E7.94439
G1 X96.347 Y129.511 E7.96242
G1 X95.52 Y129.15 E7.98043
G1 X94.727 Y128.717 E7.99846
G1 X93.976 Y128.216 E8.01648
G1 X93.272 Y127.65 E8.0345
G1 X92.621 Y127.024 E8.05253
G1 X92.028 Y126.343 E8.07055
G1 X91.498 Y125.612 E8.08856
G1 X91.034 Y124.837 E8.10659
G1 X90.64 Y124.024 E8.12462
G1 X90.32 Y123.18 E8.14263
G1 X90.076 Y122.31 E8.16066
G1 X89.91 Y121.422 E8.17869
G1 X89.813 Y120.267 E8.20182
G1 X89.8 Y119.658 E8.21398
G1 X89.801 Y100.536 E8.59558
G1 X89.81 Y99.871 E8.60885
G1 X89.862 Y98.969 E8.62688
G1 X89.994 Y98.076 E8.6449
G1 X90.204 Y97.198 E8.66291
G1 X90.491 Y96.341 E8.68095
G1 X90.853 Y95.514 E8.69896
G1 X91.286 Y94.722 E8.71698
G1 X91.788 Y93.971 E8.735
G1 X92.355 Y93.267 E8.75304
G1 X92.981 Y92.617 E8.77105
G1 F1500 E2.27105
;MESH:cubeWeek3.stl
G0 F6000 X100.414 Y99.335
G0 X100.414 Y100.414
G0 X118.828 Y101.172
G0 X119 Y119
;TYPE:WALL-INNER
G1 F1500 E8.77105
G1 F1200 X119 Y101 E9.13026
G1 X101 Y101 E9.48947
G1 X101 Y119 E9.84868
G1 X119 Y119 E10.20789
G0 F6000 X119.4 Y119.4
G1 F1200 X119.4 Y100.6 E10.58306
G1 X100.6 Y100.6 E10.95824
G1 X100.6 Y119.4 E11.33341
G1 X119.4 Y119.4 E11.70859
G0 F6000 X119.8 Y119.8
;TYPE:WALL-OUTER
G1 F1200 X119.8 Y100.2 E12.09973
G1 X100.2 Y100.2 E12.49086
G1 X100.2 Y119.8 E12.882
G1 X119.8 Y119.8 E13.27314
G0 F6000 X119.53 Y119.53
G0 X118.9 Y118.64
G0 X118.64 Y118.64
;TYPE:SKIN
G1 F1200 X101.36 Y118.64 E13.61798
G1 X101.36 Y101.36 E13.96282
G1 X118.64 Y101.36 E14.30767
G1 X118.64 Y118.64 E14.65251
G0 F6000 X118.9 Y118.64
G0 X118.828 Y101.172
G0 X117.965 Y101.1
G0 X117.965 Y101.56
G1 F1200 X118.44 Y102.035 E14.66591
G0 F6000 X118.44 Y102.6
G1 F1200 X117.4 Y101.56 E14.69526
G0 F6000 X116.834 Y101.56
G1 F1200 X118.44 Y103.166 E14.74059
G0 F6000 X118.44 Y103.732
G1 F1200 X116.268 Y101.56 E14.80189
G0 F6000 X115.702 Y101.56
G1 F1200 X118.44 Y104.298 E14.87916
G0 F6000 X118.44 Y104.863
G1 F1200 X115.137 Y101.56 E14.97238
G0 F6000 X114.571 Y101.56
G1 F1200 X118.44 Y105.429 E15.08157
G0 F6000 X118.44 Y105.995
G1 F1200 X114.005 Y101.56 E15.20673
G0 F6000 X113.44 Y101.56
G1 F1200 X118.44 Y106.56 E15.34784
G0 F6000 X118.44 Y107.126
G1 F1200 X112.874 Y101.56 E15.50493
G0 F6000 X112.308 Y101.56
G1 F1200 X118.44 Y107.692 E15.67799
G0 F6000 X118.44 Y108.257
G1 F1200 X111.743 Y101.56 E15.86699
G0 F6000 X111.177 Y101.56
G1 F1200 X118.44 Y108.823 E16.07197
G0 F6000 X118.44 Y109.389
G1 F1200 X110.611 Y101.56 E16.29292
G0 F6000 X110.046 Y101.56
G1 F1200 X118.44 Y109.954 E16.52982
G0 F6000 X118.44 Y110.52
G1 F1200 X109.48 Y101.56 E16.78269
G0 F6000 X108.914 Y101.56
G1 F1200 X118.44 Y111.086 E17.05153
G0 F6000 X118.44 Y111.651
G1 F1200 X108.349 Y101.56 E17.33632
G0 F6000 X107.783 Y101.56
G1 F1200 X118.44 Y112.217 E17.63709
G0 F6000 X118.44 Y112.783
G1 F1200 X107.217 Y101.56 E17.95382
G0 F6000 X106.652 Y101.56
G1 F1200 X118.44 Y113.349 E18.28652
G0 F6000 X118.44 Y113.914
G1 F1200 X106.086 Y101.56 E18.63518
G0 F6000 X105.52 Y101.56
G1 F1200 X118.44 Y114.48 E18.99981
G0 F6000 X118.44 Y115.046
G1 F1200 X104.954 Y101.56 E19.38041
G0 F6000 X104.389 Y101.56
G1 F1200 X118.44 Y115.611 E19.77696
G0 F6000 X118.44 Y116.177
G1 F1200 X103.823 Y101.56 E20.18948
G0 F6000 X103.257 Y101.56
G1 F1200 X118.44 Y116.743 E20.61798
G0 F6000 X118.44 Y117.308
G1 F1200 X102.692 Y101.56 E21.06242
G0 F6000 X102.126 Y101.56
G1 F1200 X118.44 Y117.874 E21.52284
G0 F6000 X118.44 Y118.44
G1 F1200 X101.56 Y101.56 E21.99923
G0 F6000 X101.56 Y102.125
G1 F1200 X117.874 Y118.44 E22.45966
G0 F6000 X117.308 Y118.44
G1 F1200 X101.56 Y102.691 E22.90412
G0 F6000 X101.56 Y103.257
G1 F1200 X116.743 Y118.44 E23.33261
G0 F6000 X116.177 Y118.44
G1 F1200 X101.56 Y103.822 E23.74515
G0 F6000 X101.56 Y104.388
G1 F1200 X115.611 Y118.44 E24.14171
G0 F6000 X115.046 Y118.44
G1 F1200 X101.56 Y104.954 E24.52232
G0 F6000 X101.56 Y105.519
G1 F1200 X114.48 Y118.44 E24.88696
G0 F6000 X113.914 Y118.44
G1 F1200 X101.56 Y106.085 E25.23563
G0 F6000 X101.56 Y106.651
G1 F1200 X113.349 Y118.44 E25.56834
G0 F6000 X112.783 Y118.44
G1 F1200 X101.56 Y107.216 E25.8851
G0 F6000 X101.56 Y107.782
G1 F1200 X112.217 Y118.44 E26.18587
G0 F6000 X111.651 Y118.44
G1 F1200 X101.56 Y108.348 E26.47068
G0 F6000 X101.56 Y108.914
G1 F1200 X111.086 Y118.44 E26.73952
G0 F6000 X110.52 Y118.44
G1 F1200 X101.56 Y109.479 E26.99241
G0 F6000 X101.56 Y110.045
G1 F1200 X109.954 Y118.44 E27.22932
G0 F6000 X109.389 Y118.44
G1 F1200 X101.56 Y110.611 E27.45027
G0 F6000 X101.56 Y111.176
G1 F1200 X108.823 Y118.44 E27.65526
G0 F6000 X108.257 Y118.44
G1 F1200 X101.56 Y111.742 E27.84428
G0 F6000 X101.56 Y112.308
G1 F1200 X107.692 Y118.44 E28.01734
G0 F6000 X107.126 Y118.44
G1 F1200 X101.56 Y112.873 E28.17444
G0 F6000 X101.56 Y113.439
G1 F1200 X106.56 Y118.44 E28.31556
G0 F6000 X105.995 Y118.44
G1 F1200 X101.56 Y114.005 E28.44073
G0 F6000 X101.56 Y114.57
G1 F1200 X105.429 Y118.44 E28.54993
G0 F6000 X104.863 Y118.44
G1 F1200 X101.56 Y115.136 E28.64316
G0 F6000 X101.56 Y115.702
G1 F1200 X104.298 Y118.44 E28.72044
G0 F6000 X103.732 Y118.44
G1 F1200 X101.56 Y116.267 E28.78175
G0 F6000 X101.56 Y116.833
G1 F1200 X103.166 Y118.44 E28.82709
G0 F6000 X102.6 Y118.44
G1 F1200 X101.56 Y117.399 E28.85645
G0 F6000 X101.56 Y117.965
G1 F1200 X102.035 Y118.44 E28.86986
M104 S200
G1 F1500 E22.36986
;MESH:NONMESH
G0 F300 X102.035 Y118.44 Z0.24
G0 F6000 X102.035 Y118.9
G0 X101.172 Y118.828
G0 X100.414 Y100.414
G0 X100.414 Y99.335
G0 X92.981 Y92.617
;TIME_ELAPSED:84.713931
;LAYER:1
M106 S85
;TYPE:SKIRT
G1 F1500 E28.86986
G1 F1200 X93.662 Y92.024 E28.88788
G1 X94.394 Y91.494 E28.90591
G1 X95.169 Y91.031 E28.92393
G1 X95.982 Y90.638 E28.94195
G1 X96.827 Y90.318 E28.95998
G1 X97.696 Y90.075 E28.97799
G1 X98.584 Y89.909 E28.99602
G1 X99.723 Y89.813 E29.01883
G1 X100.33 Y89.8 E29.03094
G1 X119.293 Y89.8 E29.40937
G1 X120.137 Y89.811 E29.42621
G1 X121.039 Y89.864 E29.44425
G1 X121.932 Y89.996 E29.46226
G1 X122.81 Y90.207 E29.48028
G1 X123.666 Y90.495 E29.4983
G1 X124.493 Y90.857 E29.51632
G1 X125.285 Y91.292 E29.53435
G1 X126.036 Y91.794 E29.55238
G1 X126.739 Y92.361 E29.5704
G1 X127.389 Y92.988 E29.58842
G1 X127.981 Y93.67 E29.60645
G1 X128.511 Y94.401 E29.62447
G1 X128.973 Y95.177 E29.64249
G1 X129.366 Y95.99 E29.66051
G1 X129.684 Y96.835 E29.67853
G1 X129.927 Y97.705 E29.69655
G1 X130.092 Y98.593 E29.71458
G1 X130.187 Y99.723 E29.73721
G1 X130.2 Y100.33 E29.74932
G1 X130.199 Y119.39 E30.12969
G1 X130.19 Y120.117 E30.14419
G1 X130.139 Y121.019 E30.16222
G1 X130.008 Y121.913 E30.18026
G1 X129.799 Y122.791 E30.19827
G1 X129.513 Y123.648 E30.2163
G1 X129.152 Y124.476 E30.23432
G1 X128.72 Y125.268 E30.25233
G1 X128.219 Y126.02 E30.27036
G1 X127.653 Y126.724 E30.28838
G1 X127.028 Y127.375 E30.30639
G1 X126.347 Y127.969 E30.32443
G1 X125.616 Y128.5 E30.34246
G1 X124.842 Y128.964 E30.36047
G1 X124.029 Y129.358 E30.3785
G1 X123.185 Y129.678 E30.39651
G1 X122.315 Y129.923 E30.41455
G1 X121.428 Y130.089 E30.43255
G1 X120.277 Y130.187 E30.45561
G1 X119.67 Y130.2 E30.46772
G1 X100.575 Y130.199 E30.84878
G1 X99.877 Y130.19 E30.86271
G1 X98.976 Y130.139 E30.88072
G1 X98.082 Y130.007 E30.89876
G1 X97.204 Y129.798 E30.91677
G1 X96.347 Y129.511 E30.9348
G1 X95.52 Y129.15 E30.95281
G1 X94.727 Y128.717 E30.97084
G1 X93.976 Y128.216 E30.98886
G1 X93.272 Y127.65 E31.00689
G1 X92.621 Y127.024 E31.02491
G1 X92.028 Y126.343 E31.04293
G1 X91.498 Y125.612 E31.06095
G1 X91.034 Y124.837 E31.07897
G1 X90.64 Y124.024 E31.097
G1 X90.32 Y123.18 E31.11502
G1 X90.076 Y122.31 E31.13305
G1 X89.91 Y121.422 E31.15108
G1 X89.813 Y120.267 E31.17421
G1 X89.8 Y119.658 E31.18636
G1 X89.801 Y100.536 E31.56796
G1 X89.81 Y99.871 E31.58123
G1 X89.862 Y98.969 E31.59926
G1 X89.994 Y98.076 E31.61728
G1 X90.204 Y97.198 E31.63529
G1 X90.491 Y96.341 E31.65333
G1 X90.853 Y95.514 E31.67135
G1 X91.286 Y94.722 E31.68936
G1 X91.788 Y93.971 E31.70739
G1 X92.355 Y93.267 E31.72542
G1 X92.981 Y92.617 E31.74343
G1 F1500 E25.24343
;MESH:cubeWeek3.stl
G0 F7500 X100.414 Y99.335
G0 X100.414 Y100.414
G0 X118.828 Y101.172
G0 X119 Y119
;TYPE:WALL-INNER
G1 F1500 E31.74343
G1 F1350 X119 Y101 E32.10264
G1 X101 Y101 E32.46185
G1 X101 Y119 E32.82106
G1 X119 Y119 E33.18027
G0 F7500 X119.4 Y119.4
G1 F1350 X119.4 Y100.6 E33.55545
G1 X100.6 Y100.6 E33.93062
G1 X100.6 Y119.4 E34.30579
G1 X119.4 Y119.4 E34.68097
G0 F7500 X119.8 Y119.8
;TYPE:WALL-OUTER
G1 F1350 X119.8 Y100.2 E35.07211
G1 X100.2 Y100.2 E35.46325
G1 X100.2 Y119.8 E35.85439
G1 X119.8 Y119.8 E36.24553
G0 F7500 X119.53 Y119.53
G0 X118.9 Y118.64
G0 X118.64 Y118.64
;TYPE:SKIN
G1 F1350 X101.36 Y118.64 E36.59037
G1 X101.36 Y101.36 E36.93521
G1 X118.64 Y101.36 E37.28005
G1 X118.64 Y118.64 E37.62489
G0 F7500 X118.017 Y118.44
G1 F1350 X118.44 Y118.017 E37.63683
G0 F7500 X118.44 Y117.451
G1 F1350 X117.451 Y118.44 E37.66474
G0 F7500 X116.885 Y118.44
G1 F1350 X118.44 Y116.885 E37.70863
