;FLAVOR:Marlin
;TIME:1247
;Filament used: 1.36937m
;Layer height: 0.28
;MINX:89
;MINY:89
;MINZ:0.28
;MAXX:131
;MAXY:131
;MAXZ:19.88
;TARGET_MACHINE.NAME:Creality Ender-3 Pro
;Generated with Cura_SteamEngine 5.7.0
M82 ;absolute extrusion mode
; Ender 3 Custom Start G-code
G92 E0 ; Reset Extruder
G28 ; Home all axes
G1 Z5.0 F3000 ; Move Z Axis up a bit during heating to not damage bed
M104 S175 ; Start heating up the nozzle most of the way
M190 S60 ; Start heating the bed, wait until target temperature reached
M109 S200 ; Finish heating the nozzle
G1 Z2.0 F3000 ; Move Z Axis up little to prevent scratching of Heat Bed
G1 X0.1 Y20 Z0.3 F5000.0 ; Move to start position
G1 X0.1 Y200.0 Z0.3 F1500.0 E15 ; Draw the first line
G1 X0.4 Y200.0 Z0.3 F5000.0 ; Move to side a little
G1 X0.4 Y20 Z0.3 F1500.0 E30 ; Draw the second line
G92 E0 ; Reset Extruder
G1 Z2.0 F3000 ; Move Z Axis up little to prevent scratching of Heat Bed
G1 X5 Y20 Z0.3 F5000.0 ; Move over to prevent blob squish
G92 E0
G92 E0
G1 F1500 E-6.5
;LAYER_COUNT:71
;LAYER:0
M107
G0 F6000 X92.456 Y92.013 Z0.28
;TYPE:SKIRT
G1 F1500 E0
G1 F1200 X93.192 Y91.376 E0.04532
G1 X93.924 Y90.846 E0.08741
G1 X94.821 Y90.311 E0.13604
G1 X95.699 Y89.89 E0.18138
G1 X96.612 Y89.548 E0.22678
G1 X97.549 Y89.289 E0.27204
G1 X98.516 Y89.111 E0.31783
G1 X99.655 Y89.015 E0.37105
G1 X100.312 Y89 E0.40165
G1 X119.304 Y89 E1.286
G1 X120.184 Y89.013 E1.32698
G1 X121.156 Y89.072 E1.37233
G1 X122.119 Y89.218 E1.41768
G1 X123.066 Y89.449 E1.46307
G1 X123.954 Y89.749 E1.50671
G1 X124.846 Y90.139 E1.55204
G1 X125.729 Y90.626 E1.599
G1 X126.48 Y91.128 E1.64106
G1 X127.295 Y91.786 E1.68984
G1 X127.993 Y92.464 E1.73515
G1 X128.629 Y93.201 E1.78048
G1 X129.199 Y93.991 E1.82584
G1 X129.661 Y94.767 E1.86789
G1 X130.115 Y95.709 E1.91658
G1 X130.444 Y96.587 E1.96024
G1 X130.713 Y97.559 E2.0072
G1 X130.89 Y98.525 E2.05293
G1 X130.985 Y99.655 E2.10574
G1 X131 Y100.33 E2.13718
G1 X130.999 Y119.4 E3.02515
G1 X130.988 Y120.163 E3.06069
G1 X130.931 Y121.136 E3.10607
G1 X130.786 Y122.099 E3.15142
G1 X130.557 Y123.045 E3.19674
G1 X130.246 Y123.969 E3.24214
G1 X129.854 Y124.86 E3.28746
G1 X129.386 Y125.712 E3.33273
G1 X128.864 Y126.493 E3.37647
G1 X128.231 Y127.278 E3.42343
G1 X127.606 Y127.929 E3.46545
G1 X126.817 Y128.617 E3.51419
G1 X126.057 Y129.167 E3.55788
G1 X125.19 Y129.684 E3.60488
G1 X124.312 Y130.106 E3.65024
G1 X123.401 Y130.448 E3.69555
G1 X122.462 Y130.709 E3.74093
G1 X121.496 Y130.887 E3.78667
G1 X120.345 Y130.985 E3.84046
G1 X119.67 Y131 E3.8719
G1 X100.564 Y130.999 E4.76155
G1 X99.831 Y130.988 E4.79569
G1 X98.859 Y130.931 E4.84103
G1 X97.896 Y130.785 E4.88638
G1 X96.95 Y130.556 E4.9317
G1 X96.026 Y130.244 E4.97712
G1 X95.136 Y129.852 E5.0224
G1 X94.313 Y129.401 E5.0661
G1 X93.474 Y128.84 E5.1131
G1 X92.77 Y128.274 E5.15516
G1 X92.017 Y127.549 E5.20383
G1 X91.38 Y126.813 E5.24915
G1 X90.85 Y126.082 E5.2912
G1 X90.314 Y125.185 E5.33986
G1 X89.892 Y124.307 E5.38522
G1 X89.55 Y123.395 E5.43057
G1 X89.29 Y122.457 E5.47589
G1 X89.112 Y121.488 E5.52177
G1 X89.014 Y120.309 E5.57686
G1 X89 Y119.658 E5.60718
G1 X89.001 Y100.525 E6.49809
G1 X89.012 Y99.825 E6.53069
G1 X89.07 Y98.852 E6.57608
G1 X89.216 Y97.889 E6.62143
G1 X89.446 Y96.943 E6.66676
G1 X89.759 Y96.02 E6.71215
G1 X90.151 Y95.13 E6.75743
G1 X90.621 Y94.277 E6.80278
G1 X91.164 Y93.469 E6.84811
G1 X91.731 Y92.765 E6.8902
G1 X92.456 Y92.013 E6.93884
G0 F6000 X92.718 Y92.315
G1 F1200 X93.427 Y91.7 E6.98255
G1 X94.159 Y91.17 E7.02463
G1 X94.995 Y90.671 E7.06996
G1 X95.84 Y90.264 E7.11363
G1 X96.719 Y89.933 E7.15737
G1 X97.622 Y89.682 E7.20101
G1 X98.55 Y89.51 E7.24496
G1 X99.689 Y89.414 E7.29818
G1 X100.321 Y89.4 E7.32762
G1 X119.298 Y89.4 E8.21127
G1 X120.16 Y89.412 E8.25141
G1 X121.097 Y89.468 E8.29512
G1 X122.025 Y89.607 E8.33881
G1 X122.938 Y89.828 E8.38255
G1 X123.794 Y90.116 E8.42461
G1 X124.686 Y90.506 E8.46994
G1 X125.507 Y90.959 E8.5136
G1 X126.258 Y91.461 E8.55567
G1 X127.017 Y92.073 E8.60107
G1 X127.691 Y92.726 E8.64476
G1 X128.305 Y93.435 E8.68844
G1 X128.855 Y94.196 E8.73216
G1 X129.317 Y94.972 E8.77421
G1 X129.74 Y95.849 E8.81955
G1 X130.069 Y96.727 E8.86321
G1 X130.32 Y97.632 E8.90694
G1 X130.491 Y98.559 E8.95083
G1 X130.586 Y99.689 E9.00364
G1 X130.6 Y100.33 E9.03349
G1 X130.599 Y119.395 E9.92124
G1 X130.589 Y120.14 E9.95593
G1 X130.535 Y121.077 E9.99963
G1 X130.397 Y122.006 E10.04337
G1 X130.178 Y122.918 E10.08704
G1 X129.88 Y123.808 E10.13074
G1 X129.503 Y124.668 E10.17447
G1 X129.053 Y125.49 E10.2181
G1 X128.531 Y126.271 E10.26185
G1 X127.942 Y127.001 E10.30552
G1 X127.317 Y127.652 E10.34754
G1 X126.582 Y128.293 E10.39296
G1 X125.822 Y128.843 E10.43664
G1 X125.016 Y129.324 E10.48035
G1 X124.171 Y129.732 E10.52404
G1 X123.293 Y130.063 E10.56773
G1 X122.389 Y130.316 E10.61144
G1 X121.462 Y130.488 E10.65534
G1 X120.311 Y130.586 E10.70913
G1 X119.67 Y130.6 E10.73899
G1 X100.57 Y130.599 E11.62836
G1 X99.854 Y130.589 E11.66171
G1 X98.918 Y130.535 E11.70536
G1 X97.989 Y130.396 E11.7491
G1 X97.077 Y130.177 E11.79278
G1 X96.187 Y129.878 E11.8365
G1 X95.328 Y129.501 E11.88018
G1 X94.505 Y129.05 E11.92388
G1 X93.725 Y128.528 E11.96758
G1 X93.021 Y127.962 E12.00964
G1 X92.319 Y127.287 E12.05499
G1 X91.704 Y126.578 E12.09869
G1 X91.174 Y125.847 E12.14074
G1 X90.674 Y125.011 E12.18609
G1 X90.266 Y124.166 E12.22979
G1 X89.935 Y123.288 E12.27348
G1 X89.683 Y122.384 E12.31718
G1 X89.511 Y121.455 E12.36117
G1 X89.413 Y120.276 E12.41626
G1 X89.4 Y119.658 E12.44504
G1 X89.401 Y100.531 E13.33568
G1 X89.411 Y99.848 E13.36748
G1 X89.466 Y98.911 E13.41119
G1 X89.605 Y97.983 E13.45488
G1 X89.825 Y97.071 E13.49857
G1 X90.125 Y96.181 E13.5423
G1 X90.502 Y95.322 E13.58598
G1 X90.953 Y94.5 E13.62964
G1 X91.476 Y93.72 E13.67337
G1 X92.043 Y93.016 E13.71546
G1 X92.718 Y92.315 E13.76077
G0 F6000 X92.981 Y92.617
G1 F1200 X93.662 Y92.024 E13.80282
G1 X94.394 Y91.494 E13.8449
G1 X95.169 Y91.031 E13.88694
G1 X95.982 Y90.638 E13.92899
G1 X96.827 Y90.318 E13.97106
G1 X97.696 Y90.075 E14.01308
G1 X98.584 Y89.909 E14.05514
G1 X99.723 Y89.813 E14.10837
G1 X100.33 Y89.8 E14.13664
G1 X119.293 Y89.8 E15.01964
G1 X120.137 Y89.811 E15.05894
G1 X121.039 Y89.864 E15.10101
G1 X121.932 Y89.996 E15.14305
G1 X122.81 Y90.207 E15.18509
G1 X123.666 Y90.495 E15.22715
G1 X124.493 Y90.857 E15.26918
G1 X125.285 Y91.292 E15.31126
G1 X126.036 Y91.794 E15.35332
G1 X126.739 Y92.361 E15.39538
G1 X127.389 Y92.988 E15.43743
G1 X127.981 Y93.67 E15.47948
G1 X128.511 Y94.401 E15.52153
G1 X128.973 Y95.177 E15.56358
G1 X129.366 Y95.99 E15.60563
G1 X129.684 Y96.835 E15.64767
G1 X129.927 Y97.705 E15.68973
G1 X130.092 Y98.593 E15.73179
G1 X130.187 Y99.723 E15.78459
G1 X130.2 Y100.33 E15.81286
G1 X130.199 Y119.39 E16.70037
G1 X130.19 Y120.117 E16.73423
G1 X130.139 Y121.019 E16.7763
G1 X130.008 Y121.913 E16.81837
G1 X129.799 Y122.791 E16.86039
G1 X129.513 Y123.648 E16.90246
G1 X129.152 Y124.476 E16.94452
G1 X128.72 Y125.268 E16.98653
G1 X128.219 Y126.02 E17.02861
G1 X127.653 Y126.724 E17.07067
G1 X127.028 Y127.375 E17.11269
G1 X126.347 Y127.969 E17.15477
G1 X125.616 Y128.5 E17.19684
G1 X124.842 Y128.964 E17.23886
G1 X124.029 Y129.358 E17.28093
G1 X123.185 Y129.678 E17.32296
G1 X122.315 Y129.923 E17.36505
G1 X121.428 Y130.089 E17.40707
G1 X120.277 Y130.187 E17.46086
G1 X119.67 Y130.2 E17.48913
G1 X100.575 Y130.199 E18.37827
G1 X99.877 Y130.19 E18.41077
G1 X98.976 Y130.139 E18.4528
G1 X98.082 Y130.007 E18.49487
G1 X97.204 Y129.798 E18.5369
G1 X96.347 Y129.511 E18.57898
G1 X95.52 Y129.15 E18.621
G1 X94.727 Y128.717 E18.66307
G1 X93.976 Y128.216 E18.70511
G1 X93.272 Y127.65 E18.74717
G1 X92.621 Y127.024 E18.78923
G1 X92.028 Y126.343 E18.83127
G1 X91.498 Y125.612 E18.87332
G1 X91.034 Y124.837 E18.91538
G1 X90.64 Y124.024 E18.95745
G1 X90.32 Y123.18 E18.99948
G1 X90.076 Y122.31 E19.04155
G1 X89.91 Y121.422 E19.08362
G1 X89.813 Y120.267 E19.13759
G1 X89.8 Y119.658 E19.16595
G1 X89.801 Y100.536 E20.05635
G1 X89.81 Y99.871 E20.08732
G1 X89.862 Y98.969 E20.12939
G1 X89.994 Y98.076 E20.17142
G1 X90.204 Y97.198 E20.21346
G1 X90.491 Y96.341 E20.25554
G1 X90.853 Y95.514 E20.29758
G1 X91.286 Y94.722 E20.33961
G1 X91.788 Y93.971 E20.38167
G1 X92.355 Y93.267 E20.42376
G1 X92.981 Y92.617 E20.46579
G1 F1500 E13.96579
;MESH:cubeWeek3.stl
G0 F6000 X100.414 Y99.335
G0 X119.4 Y119.4
;TYPE:WALL-INNER
G1 F1500 E20.46579
G1 F1200 X119.4 Y100.6 E21.34119
G1 X100.6 Y100.6 E22.2166
G1 X100.6 Y119.4 E23.09201
G1 X119.4 Y119.4 E23.96741
G0 F6000 X119.8 Y119.8
;TYPE:WALL-OUTER
G1 F1200 X119.8 Y100.2 E24.88007
G1 X100.2 Y100.2 E25.79273
G1 X100.2 Y119.8 E26.70539
G1 X119.8 Y119.8 E27.61804
G0 F6000 X119.53 Y119.53
G0 X119.3 Y119.04
G0 X119.04 Y119.04
;TYPE:SKIN
G1 F1200 X100.96 Y119.04 E28.45993
G1 X100.96 Y100.96 E29.30181
G1 X119.04 Y100.96 E30.14369
G1 X119.04 Y119.04 E30.98557
G0 F6000 X119.3 Y119.04
G0 X119.228 Y100.772
G0 X118.696 Y100.7
G0 X118.696 Y101.16
G1 F1200 X118.84 Y101.304 E30.99505
G0 F6000 X118.84 Y101.869
G1 F1200 X118.131 Y101.16 E31.04174
G0 F6000 X117.565 Y101.16
G1 F1200 X118.84 Y102.435 E31.1257
G0 F6000 X118.84 Y103.001
G1 F1200 X116.999 Y101.16 E31.24693
G0 F6000 X116.434 Y101.16
G1 F1200 X118.84 Y103.566 E31.40537
G0 F6000 X118.84 Y104.132
G1 F1200 X115.868 Y101.16 E31.60108
G0 F6000 X115.302 Y101.16
G1 F1200 X118.84 Y104.698 E31.83407
G0 F6000 X118.84 Y105.263
G1 F1200 X114.737 Y101.16 E32.10426
G0 F6000 X114.171 Y101.16
G1 F1200 X118.84 Y105.829 E32.41172
G0 F6000 X118.84 Y106.395
G1 F1200 X113.605 Y101.16 E32.75645
G0 F6000 X113.04 Y101.16
G1 F1200 X118.84 Y106.961 E33.13842
G0 F6000 X118.84 Y107.526
G1 F1200 X112.474 Y101.16 E33.55764
G0 F6000 X111.908 Y101.16
G1 F1200 X118.84 Y108.092 E34.01412
G0 F6000 X118.84 Y108.658
G1 F1200 X111.342 Y101.16 E34.50788
G0 F6000 X110.777 Y101.16
G1 F1200 X118.84 Y109.223 E35.03884
G0 F6000 X118.84 Y109.789
G1 F1200 X110.211 Y101.16 E35.60707
G0 F6000 X109.645 Y101.16
G1 F1200 X118.84 Y110.355 E36.21258
G0 F6000 X118.84 Y110.92
G1 F1200 X109.08 Y101.16 E36.85529
G0 F6000 X108.514 Y101.16
G1 F1200 X118.84 Y111.486 E37.53528
G0 F6000 X118.84 Y112.052
G1 F1200 X107.948 Y101.16 E38.25253
G0 F6000 X107.383 Y101.16
G1 F1200 X118.84 Y112.617 E39.007
G0 F6000 X118.84 Y113.183
G1 F1200 X106.817 Y101.16 E39.79873
G0 F6000 X106.251 Y101.16
G1 F1200 X118.84 Y113.749 E40.62774
G0 F6000 X118.84 Y114.314
G1 F1200 X105.686 Y101.16 E41.49395
G0 F6000 X105.12 Y101.16
G1 F1200 X118.84 Y114.88 E42.39744
G0 F6000 X118.84 Y115.446
G1 F1200 X104.554 Y101.16 E43.33819
G0 F6000 X103.989 Y101.16
G1 F1200 X118.84 Y116.011 E44.31616
G0 F6000 X118.84 Y116.577
G1 F1200 X103.423 Y101.16 E45.33139
G0 F6000 X102.857 Y101.16
G1 F1200 X118.84 Y117.143 E46.3839
G0 F6000 X118.84 Y117.709
G1 F1200 X102.291 Y101.16 E47.47368
G0 F6000 X101.726 Y101.16
G1 F1200 X118.84 Y118.274 E48.60067
G0 F6000 X118.84 Y118.84
G1 F1200 X101.16 Y101.16 E49.76493
G0 F6000 X101.159 Y101.725
G1 F1200 X118.274 Y118.84 E50.89198
G0 F6000 X117.709 Y118.84
G1 F1200 X101.159 Y102.291 E51.98179
G0 F6000 X101.159 Y102.856
G1 F1200 X117.143 Y118.84 E53.03437
G0 F6000 X116.577 Y118.84
G1 F1200 X101.159 Y103.422 E54.04967
G0 F6000 X101.159 Y103.988
G1 F1200 X116.011 Y118.84 E55.0277
G0 F6000 X115.446 Y118.84
G1 F1200 X101.159 Y104.554 E55.96849
G0 F6000 X101.159 Y105.119
G1 F1200 X114.88 Y118.84 E56.87204
G0 F6000 X114.314 Y118.84
G1 F1200 X101.159 Y105.685 E57.73832
G0 F6000 X101.159 Y106.251
G1 F1200 X113.749 Y118.84 E58.56736
G0 F6000 X113.183 Y118.84
G1 F1200 X101.159 Y106.816 E59.35916
G0 F6000 X101.159 Y107.382
G1 F1200 X112.617 Y118.84 E60.11369
G0 F6000 X112.052 Y118.84
G1 F1200 X101.159 Y107.948 E60.83098
G0 F6000 X101.159 Y108.513
G1 F1200 X111.486 Y118.84 E61.51103
G0 F6000 X110.92 Y118.84
G1 F1200 X101.159 Y109.079 E62.15381
G0 F6000 X101.159 Y109.645
G1 F1200 X110.355 Y118.84 E62.75935
G0 F6000 X109.789 Y118.84
G1 F1200 X101.159 Y110.21 E63.32765
G0 F6000 X101.159 Y110.776
G1 F1200 X109.223 Y118.84 E63.85867
G0 F6000 X108.658 Y118.84
G1 F1200 X101.159 Y111.342 E64.35246
G0 F6000 X101.159 Y111.907
G1 F1200 X108.092 Y118.84 E64.80901
G0 F6000 X107.526 Y118.84
G1 F1200 X101.159 Y112.473 E65.22829
G0 F6000 X101.159 Y113.039
G1 F1200 X106.961 Y118.84 E65.61033
G0 F6000 X106.395 Y118.84
G1 F1200 X101.159 Y113.604 E65.95513
G0 F6000 X101.159 Y114.17
G1 F1200 X105.829 Y118.84 E66.26266
G0 F6000 X105.263 Y118.84
G1 F1200 X101.159 Y114.736 E66.53291
G0 F6000 X101.159 Y115.302
G1 F1200 X104.698 Y118.84 E66.76593
G0 F6000 X104.132 Y118.84
G1 F1200 X101.159 Y115.867 E66.9617
G0 F6000 X101.159 Y116.433
G1 F1200 X103.566 Y118.84 E67.12021
G0 F6000 X103.001 Y118.84
G1 F1200 X101.159 Y116.999 E67.24148
G0 F6000 X101.159 Y117.564
G1 F1200 X102.435 Y118.84 E67.3255
G0 F6000 X101.869 Y118.84
G1 F1200 X101.159 Y118.13 E67.37226
G0 F6000 X101.159 Y118.696
G1 F1200 X101.304 Y118.84 E67.38177
M104 S200
G1 F1500 E60.88177
;MESH:NONMESH
G0 F300 X101.304 Y118.84 Z0.56
G0 F6000 X101.304 Y119.3
G0 X100.772 Y119.228
G0 X100.414 Y100.414
G0 X100.414 Y99.335
G0 X92.981 Y92.617
;TIME_ELAPSED:84.394213
;LAYER:1
M106 S85
;TYPE:SKIRT
G1 F1500 E67.38177
G1 F1200 X93.662 Y92.024 E67.42382
G1 X94.394 Y91.494 E67.4659
G1 X95.169 Y91.031 E67.50794
G1 X95.982 Y90.638 E67.54999
G1 X96.827 Y90.318 E67.59206
G1 X97.696 Y90.075 E67.63408
G1 X98.584 Y89.909 E67.67614
G1 X99.723 Y89.813 E67.72937
G1 X100.33 Y89.8 E67.75764
G1 X119.293 Y89.8 E68.64063
G1 X120.137 Y89.811 E68.67994
G1 X121.039 Y89.864 E68.72201
G1 X121.932 Y89.996 E68.76404
G1 X122.81 Y90.207 E68.80609
G1 X123.666 Y90.495 E68.84815
G1 X124.493 Y90.857 E68.89018
G1 X125.285 Y91.292 E68.93226
G1 X126.036 Y91.794 E68.97432
G1 X126.739 Y92.361 E69.01638
G1 X127.389 Y92.988 E69.05843
G1 X127.981 Y93.67 E69.10048
G1 X128.511 Y94.401 E69.14252
G1 X128.973 Y95.177 E69.18458
G1 X129.366 Y95.99 E69.22663
G1 X129.684 Y96.835 E69.26867
G1 X129.927 Y97.705 E69.31073
G1 X130.092 Y98.593 E69.35278
G1 X130.187 Y99.723 E69.40559
G1 X130.2 Y100.33 E69.43386
G1 X130.199 Y119.39 E70.32137
G1 X130.19 Y120.117 E70.35523
G1 X130.139 Y121.019 E70.39729
G1 X130.008 Y121.913 E70.43937
G1 X129.799 Y122.791 E70.48139
G1 X129.513 Y123.648 E70.52346
G1 X129.152 Y124.476 E70.56552
G1 X128.72 Y125.268 E70.60753
G1 X128.219 Y126.02 E70.64961
G1 X127.653 Y126.724 E70.69167
G1 X127.028 Y127.375 E70.73369
G1 X126.347 Y127.969 E70.77577
G1 X125.616 Y128.5 E70.81784
G1 X124.842 Y128.964 E70.85986
G1 X124.029 Y129.358 E70.90193
G1 X123.185 Y129.678 E70.94396
G1 X122.315 Y129.923 E70.98604
G1 X121.428 Y130.089 E71.02806
G1 X120.277 Y130.187 E71.08185
G1 X119.67 Y130.2 E71.11012
G1 X100.575 Y130.199 E71.99927
G1 X99.877 Y130.19 E72.03177
G1 X98.976 Y130.139 E72.07379
G1 X98.082 Y130.007 E72.11587
G1 X97.204 Y129.798 E72.1579
G1 X96.347 Y129.511 E72.19998
G1 X95.52 Y129.15 E72.242
G1 X94.727 Y128.717 E72.28407
G1 X93.976 Y128.216 E72.32611
G1 X93.272 Y127.65 E72.36817
G1 X92.621 Y127.024 E72.41022
G1 X92.028 Y126.343 E72.45227
G1 X91.498 Y125.612 E72.49432
G1 X91.034 Y124.837 E72.53638
G1 X90.64 Y124.024 E72.57844
G1 X90.32 Y123.18 E72.62047
G1 X90.076 Y122.31 E72.66255
G1 X89.91 Y121.422 E72.70461
G1 X89.813 Y120.267 E72.75859
G1 X89.8 Y119.658 E72.78695
G1 X89.801 Y100.536 E73.67735
G1 X89.81 Y99.871 E73.70832
G1 X89.862 Y98.969 E73.75039
G1 X89.994 Y98.076 E73.79242
G1 X90.204 Y97.198 E73.83446
G1 X90.491 Y96.341 E73.87654
G1 X90.853 Y95.514 E73.91858
G1 X91.286 Y94.722 E73.96061
G1 X91.788 Y93.971 E74.00267
G1 X92.355 Y93.267 E74.04476
G1 X92.981 Y92.617 E74.08678
G1 F1500 E67.58678
;MESH:cubeWeek3.stl
G0 F7500 X100.414 Y99.335
G0 X119.4 Y119.4
;TYPE:WALL-INNER
G1 F1500 E74.08678
G1 F1350 X119.4 Y100.6 E74.96219
G1 X100.6 Y100.6 E75.8376
G1 X100.6 Y119.4 E76.713
G1 X119.4 Y119.4 E77.58841
G0 F7500 X119.8 Y119.8
;TYPE:WALL-OUTER
G1 F1350 X119.8 Y100.2 E78.50107
G1 X100.2 Y100.2 E79.41373
G1 X100.2 Y119.8 E80.32639
G1 X119.8 Y119.8 E81.23904
G0 F7500 X119.53 Y119.53
G0 X119.3 Y119.04
G0 X119.04 Y119.04
;TYPE:SKIN
G1 F1350 X100.96 Y119.04 E82.08092
G1 X100.96 Y100.96 E82.9228
G1 X119.04 Y100.96 E83.76468
G1 X119.04 Y119.04 E84.60657
G0 F7500 X118.748 Y118.84
G1 F1350 X118.84 Y118.748 E84.61262
G0 F7500 X118.84 Y118.182
