;FLAVOR:Marlin
;TIME:1619
;Filament used: 1.29382m
;Layer height: 0.2
;MINX:89
;MINY:89
;MINZ:0.2
;MAXX:131
;MAXY:131
;MAXZ:20
;TARGET_MACHINE.NAME:Creality Ender-3 Pro
;Generated with Cura_SteamEngine 5.7.0
M82 ;absolute extrusion mode
; Ender 3 Custom Start G-code
G92 E0 ; Reset Extruder
G28 ; Home all axes
G1 Z5.0 F3000 ; Move Z Axis up a bit during heating to not damage bed
M104 S175 ; Start heating up the nozzle most of the way
M190 S60 ; Start heating the bed, wait until target temperature reached
M109 S200 ; Finish heating the nozzle
G1 Z2.0 F3000 ; Move Z Axis up little to prevent scratching of Heat Bed
G1 X0.1 Y20 Z0.3 F5000.0 ; Move to start position
G1 X0.1 Y200.0 Z0.3 F1500.0 E15 ; Draw the first line
G1 X0.4 Y200.0 Z0.3 F5000.0 ; Move to side a little
G1 X0.4 Y20 Z0.3 F1500.0 E30 ; Draw the second line
G92 E0 ; Reset Extruder
G1 Z2.0 F3000 ; Move Z Axis up little to prevent scratching of Heat Bed
G1 X5 Y20 Z0.3 F5000.0 ; Move over to prevent blob squish
G92 E0
G92 E0
G1 F1500 E-6.5
;LAYER_COUNT:100
;LAYER:0
M107
G0 F6000 X92.456 Y92.013 Z0.2
;TYPE:SKIRT
G1 F1500 E0
G1 F1200 X93.192 Y91.376 E0.03237
G1 X93.924 Y90.846 E0.06243
G1 X94.821 Y90.311 E0.09717
G1 X95.699 Y89.89 E0.12956
G1 X96.612 Y89.548 E0.16198
G1 X97.549 Y89.289 E0.19432
G1 X98.516 Y89.111 E0.22702
G1 X99.655 Y89.015 E0.26504
G1 X100.312 Y89 E0.2869
G1 X119.304 Y89 E0.91857
G1 X120.184 Y89.013 E0.94784
G1 X121.156 Y89.072 E0.98023
G1 X122.119 Y89.218 E1.01263
G1 X123.066 Y89.449 E1.04505
G1 X123.954 Y89.749 E1.07622
G1 X124.846 Y90.139 E1.1086
G1 X125.729 Y90.626 E1.14214
G1 X126.48 Y91.128 E1.17219
G1 X127.295 Y91.786 E1.20703
G1 X127.993 Y92.464 E1.23939
G1 X128.629 Y93.201 E1.27177
G1 X129.199 Y93.991 E1.30417
G1 X129.661 Y94.767 E1.33421
G1 X130.115 Y95.709 E1.36899
G1 X130.444 Y96.587 E1.40017
G1 X130.713 Y97.559 E1.43372
G1 X130.89 Y98.525 E1.46638
G1 X130.985 Y99.655 E1.5041
G1 X131 Y100.33 E1.52655
G1 X130.999 Y119.4 E2.16082
G1 X130.988 Y120.163 E2.18621
G1 X130.931 Y121.136 E2.21862
G1 X130.786 Y122.099 E2.25101
G1 X130.557 Y123.045 E2.28339
G1 X130.246 Y123.969 E2.31581
G1 X129.854 Y124.86 E2.34819
G1 X129.386 Y125.712 E2.38052
G1 X128.864 Y126.493 E2.41176
G1 X128.231 Y127.278 E2.4453
G1 X127.606 Y127.929 E2.47532
G1 X126.817 Y128.617 E2.51014
G1 X126.057 Y129.167 E2.54134
G1 X125.19 Y129.684 E2.57491
G1 X124.312 Y130.106 E2.60732
G1 X123.401 Y130.448 E2.63968
G1 X122.462 Y130.709 E2.6721
G1 X121.496 Y130.887 E2.70477
G1 X120.345 Y130.985 E2.74319
G1 X119.67 Y131 E2.76564
G1 X100.564 Y130.999 E3.40111
G1 X99.831 Y130.988 E3.42549
G1 X98.859 Y130.931 E3.45788
G1 X97.896 Y130.785 E3.49027
G1 X96.95 Y130.556 E3.52265
G1 X96.026 Y130.244 E3.55508
G1 X95.136 Y129.852 E3.58743
G1 X94.313 Y129.401 E3.61864
G1 X93.474 Y128.84 E3.65221
G1 X92.77 Y128.274 E3.68226
G1 X92.017 Y127.549 E3.71702
G1 X91.38 Y126.813 E3.7494
G1 X90.85 Y126.082 E3.77943
G1 X90.314 Y125.185 E3.81418
G1 X89.892 Y124.307 E3.84658
G1 X89.55 Y123.395 E3.87898
G1 X89.29 Y122.457 E3.91135
G1 X89.112 Y121.488 E3.94412
G1 X89.014 Y120.309 E3.98347
G1 X89 Y119.658 E4.00513
G1 X89.001 Y100.525 E4.64149
G1 X89.012 Y99.825 E4.66478
G1 X89.07 Y98.852 E4.6972
G1 X89.216 Y97.889 E4.72959
G1 X89.446 Y96.943 E4.76197
G1 X89.759 Y96.02 E4.79439
G1 X90.151 Y95.13 E4.82674
G1 X90.621 Y94.277 E4.85913
G1 X91.164 Y93.469 E4.89151
G1 X91.731 Y92.765 E4.92157
G1 X92.456 Y92.013 E4.95632
G0 F6000 X92.718 Y92.315
G1 F1200 X93.427 Y91.7 E4.98753
G1 X94.159 Y91.17 E5.01759
G1 X94.995 Y90.671 E5.04997
G1 X95.84 Y90.264 E5.08117
G1 X96.719 Y89.933 E5.11241
G1 X97.622 Y89.682 E5.14358
G1 X98.55 Y89.51 E5.17497
G1 X99.689 Y89.414 E5.21299
G1 X100.321 Y89.4 E5.23401
G1 X119.298 Y89.4 E5.86519
G1 X120.16 Y89.412 E5.89386
G1 X121.097 Y89.468 E5.92509
G1 X122.025 Y89.607 E5.95629
G1 X122.938 Y89.828 E5.98754
G1 X123.794 Y90.116 E6.01758
G1 X124.686 Y90.506 E6.04996
G1 X125.507 Y90.959 E6.08114
G1 X126.258 Y91.461 E6.11119
G1 X127.017 Y92.073 E6.14362
G1 X127.691 Y92.726 E6.17483
G1 X128.305 Y93.435 E6.20603
G1 X128.855 Y94.196 E6.23726
G1 X129.317 Y94.972 E6.26729
G1 X129.74 Y95.849 E6.29968
G1 X130.069 Y96.727 E6.33086
G1 X130.32 Y97.632 E6.3621
G1 X130.491 Y98.559 E6.39345
G1 X130.586 Y99.689 E6.43117
G1 X130.6 Y100.33 E6.45249
G1 X130.599 Y119.395 E7.0866
G1 X130.589 Y120.14 E7.11138
G1 X130.535 Y121.077 E7.1426
G1 X130.397 Y122.006 E7.17383
G1 X130.178 Y122.918 E7.20503
G1 X129.88 Y123.808 E7.23625
G1 X129.503 Y124.668 E7.26748
G1 X129.053 Y125.49 E7.29865
G1 X128.531 Y126.271 E7.32989
G1 X127.942 Y127.001 E7.36109
G1 X127.317 Y127.652 E7.3911
G1 X126.582 Y128.293 E7.42354
G1 X125.822 Y128.843 E7.45474
G1 X125.016 Y129.324 E7.48596
G1 X124.171 Y129.732 E7.51717
G1 X123.293 Y130.063 E7.54838
G1 X122.389 Y130.316 E7.5796
G1 X121.462 Y130.488 E7.61096
G1 X120.311 Y130.586 E7.64938
G1 X119.67 Y130.6 E7.67071
G1 X100.57 Y130.599 E8.30597
G1 X99.854 Y130.589 E8.32979
G1 X98.918 Y130.535 E8.36097
G1 X97.989 Y130.396 E8.39222
G1 X97.077 Y130.177 E8.42341
G1 X96.187 Y129.878 E8.45464
G1 X95.328 Y129.501 E8.48584
G1 X94.505 Y129.05 E8.51705
G1 X93.725 Y128.528 E8.54827
G1 X93.021 Y127.962 E8.57831
G1 X92.319 Y127.287 E8.61071
G1 X91.704 Y126.578 E8.64192
G1 X91.174 Y125.847 E8.67195
G1 X90.674 Y125.011 E8.70435
G1 X90.266 Y124.166 E8.73556
G1 X89.935 Y123.288 E8.76677
G1 X89.683 Y122.384 E8.79798
G1 X89.511 Y121.455 E8.82941
G1 X89.413 Y120.276 E8.86876
G1 X89.4 Y119.658 E8.88932
G1 X89.401 Y100.531 E9.52548
G1 X89.411 Y99.848 E9.5482
G1 X89.466 Y98.911 E9.57942
G1 X89.605 Y97.983 E9.61063
G1 X89.825 Y97.071 E9.64183
G1 X90.125 Y96.181 E9.67307
G1 X90.502 Y95.322 E9.70427
G1 X90.953 Y94.5 E9.73546
G1 X91.476 Y93.72 E9.76669
G1 X92.043 Y93.016 E9.79676
G1 X92.718 Y92.315 E9.82912
G0 F6000 X92.981 Y92.617
G1 F1200 X93.662 Y92.024 E9.85916
G1 X94.394 Y91.494 E9.88922
G1 X95.169 Y91.031 E9.91924
G1 X95.982 Y90.638 E9.94928
G1 X96.827 Y90.318 E9.97933
G1 X97.696 Y90.075 E10.00934
G1 X98.584 Y89.909 E10.03939
G1 X99.723 Y89.813 E10.07741
G1 X100.33 Y89.8 E10.0976
G1 X119.293 Y89.8 E10.72831
G1 X120.137 Y89.811 E10.75639
G1 X121.039 Y89.864 E10.78644
G1 X121.932 Y89.996 E10.81646
G1 X122.81 Y90.207 E10.8465
G1 X123.666 Y90.495 E10.87653
G1 X124.493 Y90.857 E10.90656
G1 X125.285 Y91.292 E10.93661
G1 X126.036 Y91.794 E10.96666
G1 X126.739 Y92.361 E10.9967
G1 X127.389 Y92.988 E11.02674
G1 X127.981 Y93.67 E11.05677
G1 X128.511 Y94.401 E11.0868
G1 X128.973 Y95.177 E11.11684
G1 X129.366 Y95.99 E11.14688
G1 X129.684 Y96.835 E11.17691
G1 X129.927 Y97.705 E11.20695
G1 X130.092 Y98.593 E11.23699
G1 X130.187 Y99.723 E11.27471
G1 X130.2 Y100.33 E11.2949
G1 X130.199 Y119.39 E11.92884
G1 X130.19 Y120.117 E11.95302
G1 X130.139 Y121.019 E11.98307
G1 X130.008 Y121.913 E12.01312
G1 X129.799 Y122.791 E12.04314
G1 X129.513 Y123.648 E12.07319
G1 X129.152 Y124.476 E12.10323
G1 X128.72 Y125.268 E12.13324
G1 X128.219 Y126.02 E12.16329
G1 X127.653 Y126.724 E12.19334
G1 X127.028 Y127.375 E12.22335
G1 X126.347 Y127.969 E12.25341
G1 X125.616 Y128.5 E12.28346
G1 X124.842 Y128.964 E12.31347
G1 X124.029 Y129.358 E12.34352
G1 X123.185 Y129.678 E12.37354
G1 X122.315 Y129.923 E12.4036
G1 X121.428 Y130.089 E12.43362
G1 X120.277 Y130.187 E12.47204
G1 X119.67 Y130.2 E12.49223
G1 X100.575 Y130.199 E13.12734
G1 X99.877 Y130.19 E13.15055
G1 X98.976 Y130.139 E13.18057
G1 X98.082 Y130.007 E13.21062
G1 X97.204 Y129.798 E13.24064
G1 X96.347 Y129.511 E13.2707
G1 X95.52 Y129.15 E13.30072
G1 X94.727 Y128.717 E13.33077
G1 X93.976 Y128.216 E13.36079
G1 X93.272 Y127.65 E13.39084
G1 X92.621 Y127.024 E13.42088
G1 X92.028 Y126.343 E13.45091
G1 X91.498 Y125.612 E13.48094
G1 X91.034 Y124.837 E13.51098
G1 X90.64 Y124.024 E13.54103
G1 X90.32 Y123.18 E13.57105
G1 X90.076 Y122.31 E13.60111
G1 X89.91 Y121.422 E13.63115
G1 X89.813 Y120.267 E13.6697
G1 X89.8 Y119.658 E13.68996
G1 X89.801 Y100.536 E14.32597
G1 X89.81 Y99.871 E14.34809
G1 X89.862 Y98.969 E14.37814
G1 X89.994 Y98.076 E14.40816
G1 X90.204 Y97.198 E14.43819
G1 X90.491 Y96.341 E14.46825
G1 X90.853 Y95.514 E14.49827
G1 X91.286 Y94.722 E14.52829
G1 X91.788 Y93.971 E14.55834
G1 X92.355 Y93.267 E14.5884
G1 X92.981 Y92.617 E14.61842
G1 F1500 E8.11842
;MESH:cubeWeek3.stl
G0 F6000 X100.414 Y99.335
G0 X119.4 Y119.4
;TYPE:WALL-INNER
G1 F1500 E14.61842
G1 F1200 X119.4 Y100.6 E15.24371
G1 X100.6 Y100.6 E15.869
G1 X100.6 Y119.4 E16.49429
G1 X119.4 Y119.4 E17.11958
G0 F6000 X119.8 Y119.8
;TYPE:WALL-OUTER
G1 F1200 X119.8 Y100.2 E17.77148
G1 X100.2 Y100.2 E18.42338
G1 X100.2 Y119.8 E19.07528
G1 X119.8 Y119.8 E19.72717
G0 F6000 X119.53 Y119.53
G0 X119.3 Y119.04
G0 X119.04 Y119.04
;TYPE:SKIN
G1 F1200 X100.96 Y119.04 E20.32852
G1 X100.96 Y100.96 E20.92986
G1 X119.04 Y100.96 E21.5312
G1 X119.04 Y119.04 E22.13255
G0 F6000 X119.3 Y119.04
G0 X119.228 Y100.772
G0 X118.696 Y100.7
G0 X118.696 Y101.16
G1 F1200 X118.84 Y101.304 E22.13932
G0 F6000 X118.84 Y101.869
G1 F1200 X118.131 Y101.16 E22.17267
G0 F6000 X117.565 Y101.16
G1 F1200 X118.84 Y102.435 E22.23264
G0 F6000 X118.84 Y103.001
G1 F1200 X116.999 Y101.16 E22.31924
G0 F6000 X116.434 Y101.16
G1 F1200 X118.84 Y103.566 E22.43241
G0 F6000 X118.84 Y104.132
G1 F1200 X115.868 Y101.16 E22.5722
G0 F6000 X115.302 Y101.16
G1 F1200 X118.84 Y104.698 E22.73862
G0 F6000 X118.84 Y105.263
G1 F1200 X114.737 Y101.16 E22.93161
G0 F6000 X114.171 Y101.16
G1 F1200 X118.84 Y105.829 E23.15123
G0 F6000 X118.84 Y106.395
G1 F1200 X113.605 Y101.16 E23.39747
G0 F6000 X113.04 Y101.16
G1 F1200 X118.84 Y106.961 E23.6703
G0 F6000 X118.84 Y107.526
G1 F1200 X112.474 Y101.16 E23.96974
G0 F6000 X111.908 Y101.16
G1 F1200 X118.84 Y108.092 E24.2958
G0 F6000 X118.84 Y108.658
G1 F1200 X111.342 Y101.16 E24.64848
G0 F6000 X110.777 Y101.16
G1 F1200 X118.84 Y109.223 E25.02774
G0 F6000 X118.84 Y109.789
G1 F1200 X110.211 Y101.16 E25.43362
G0 F6000 X109.645 Y101.16
G1 F1200 X118.84 Y110.355 E25.86613
G0 F6000 X118.84 Y110.92
G1 F1200 X109.08 Y101.16 E26.32521
G0 F6000 X108.514 Y101.16
G1 F1200 X118.84 Y111.486 E26.81091
G0 F6000 X118.84 Y112.052
G1 F1200 X107.948 Y101.16 E27.32324
G0 F6000 X107.383 Y101.16
G1 F1200 X118.84 Y112.617 E27.86214
G0 F6000 X118.84 Y113.183
G1 F1200 X106.817 Y101.16 E28.42767
G0 F6000 X106.251 Y101.16
G1 F1200 X118.84 Y113.749 E29.01981
G0 F6000 X118.84 Y114.314
G1 F1200 X105.686 Y101.16 E29.63854
G0 F6000 X105.12 Y101.16
G1 F1200 X118.84 Y114.88 E30.28388
G0 F6000 X118.84 Y115.446
G1 F1200 X104.554 Y101.16 E30.95585
G0 F6000 X103.989 Y101.16
G1 F1200 X118.84 Y116.011 E31.6544
G0 F6000 X118.84 Y116.577
G1 F1200 X103.423 Y101.16 E32.37957
G0 F6000 X102.857 Y101.16
G1 F1200 X118.84 Y117.143 E33.13136
G0 F6000 X118.84 Y117.709
G1 F1200 X102.291 Y101.16 E33.90977
G0 F6000 X101.726 Y101.16
G1 F1200 X118.84 Y118.274 E34.71476
G0 F6000 X118.84 Y118.84
G1 F1200 X101.16 Y101.16 E35.54638
G0 F6000 X101.159 Y101.725
G1 F1200 X118.274 Y118.84 E36.35141
G0 F6000 X117.709 Y118.84
G1 F1200 X101.159 Y102.291 E37.12985
G0 F6000 X101.159 Y102.856
G1 F1200 X117.143 Y118.84 E37.88169
G0 F6000 X116.577 Y118.84
G1 F1200 X101.159 Y103.422 E38.6069
G0 F6000 X101.159 Y103.988
G1 F1200 X116.011 Y118.84 E39.3055
G0 F6000 X115.446 Y118.84
G1 F1200 X101.159 Y104.554 E39.97749
G0 F6000 X101.159 Y105.119
G1 F1200 X114.88 Y118.84 E40.62288
G0 F6000 X114.314 Y118.84
G1 F1200 X101.159 Y105.685 E41.24166
G0 F6000 X101.159 Y106.251
G1 F1200 X113.749 Y118.84 E41.83383
G0 F6000 X113.183 Y118.84
G1 F1200 X101.159 Y106.816 E42.3994
G0 F6000 X101.159 Y107.382
G1 F1200 X112.617 Y118.84 E42.93835
G0 F6000 X112.052 Y118.84
G1 F1200 X101.159 Y107.948 E43.4507
G0 F6000 X101.159 Y108.513
G1 F1200 X111.486 Y118.84 E43.93645
G0 F6000 X110.92 Y118.84
G1 F1200 X101.159 Y109.079 E44.39558
G0 F6000 X101.159 Y109.645
G1 F1200 X110.355 Y118.84 E44.8281
G0 F6000 X109.789 Y118.84
G1 F1200 X101.159 Y110.21 E45.23403
G0 F6000 X101.159 Y110.776
G1 F1200 X109.223 Y118.84 E45.61334
G0 F6000 X108.658 Y118.84
G1 F1200 X101.159 Y111.342 E45.96604
G0 F6000 X101.159 Y111.907
G1 F1200 X108.092 Y118.84 E46.29215
G0 F6000 X107.526 Y118.84
G1 F1200 X101.159 Y112.473 E46.59164
G0 F6000 X101.159 Y113.039
G1 F1200 X106.961 Y118.84 E46.86452
G0 F6000 X106.395 Y118.84
G1 F1200 X101.159 Y113.604 E47.11081
G0 F6000 X101.159 Y114.17
G1 F1200 X105.829 Y118.84 E47.33047
G0 F6000 X105.263 Y118.84
G1 F1200 X101.159 Y114.736 E47.52351
G0 F6000 X101.159 Y115.302
G1 F1200 X104.698 Y118.84 E47.68995
G0 F6000 X104.132 Y118.84
G1 F1200 X101.159 Y115.867 E47.82979
G0 F6000 X101.159 Y116.433
G1 F1200 X103.566 Y118.84 E47.94301
G0 F6000 X103.001 Y118.84
G1 F1200 X101.159 Y116.999 E48.02963
G0 F6000 X101.159 Y117.564
G1 F1200 X102.435 Y118.84 E48.08964
G0 F6000 X101.869 Y118.84
G1 F1200 X101.159 Y118.13 E48.12304
G0 F6000 X101.159 Y118.696
G1 F1200 X101.304 Y118.84 E48.12984
M104 S200
G1 F1500 E41.62984
;MESH:NONMESH
G0 F300 X101.304 Y118.84 Z0.4
G0 F6000 X101.304 Y119.3
G0 X100.772 Y119.228
G0 X100.414 Y100.414
G0 X100.414 Y99.335
G0 X92.981 Y92.617
;TIME_ELAPSED:84.385744
;LAYER:1
M106 S85
;TYPE:SKIRT
G1 F1500 E48.12984
G1 F1200 X93.662 Y92.024 E48.15987
G1 X94.394 Y91.494 E48.18993
G1 X95.169 Y91.031 E48.21996
G1 X95.982 Y90.638 E48.24999
G1 X96.827 Y90.318 E48.28004
G1 X97.696 Y90.075 E48.31005
G1 X98.584 Y89.909 E48.3401
G1 X99.723 Y89.813 E48.37812
G1 X100.33 Y89.8 E48.39831
G1 X119.293 Y89.8 E49.02902
G1 X120.137 Y89.811 E49.0571
G1 X121.039 Y89.864 E49.08715
G1 X121.932 Y89.996 E49.11717
G1 X122.81 Y90.207 E49.14721
G1 X123.666 Y90.495 E49.17725
G1 X124.493 Y90.857 E49.20727
G1 X125.285 Y91.292 E49.23733
G1 X126.036 Y91.794 E49.26737
G1 X126.739 Y92.361 E49.29741
G1 X127.389 Y92.988 E49.32745
G1 X127.981 Y93.67 E49.35749
G1 X128.511 Y94.401 E49.38752
G1 X128.973 Y95.177 E49.41756
G1 X129.366 Y95.99 E49.44759
G1 X129.684 Y96.835 E49.47762
G1 X129.927 Y97.705 E49.50766
G1 X130.092 Y98.593 E49.5377
G1 X130.187 Y99.723 E49.57542
G1 X130.2 Y100.33 E49.59561
G1 X130.199 Y119.39 E50.22955
G1 X130.19 Y120.117 E50.25373
G1 X130.139 Y121.019 E50.28378
G1 X130.008 Y121.913 E50.31383
G1 X129.799 Y122.791 E50.34385
G1 X129.513 Y123.648 E50.3739
G1 X129.152 Y124.476 E50.40394
G1 X128.72 Y125.268 E50.43395
G1 X128.219 Y126.02 E50.464
G1 X127.653 Y126.724 E50.49405
G1 X127.028 Y127.375 E50.52406
G1 X126.347 Y127.969 E50.55412
G1 X125.616 Y128.5 E50.58417
G1 X124.842 Y128.964 E50.61419
G1 X124.029 Y129.358 E50.64423
G1 X123.185 Y129.678 E50.67426
G1 X122.315 Y129.923 E50.70432
G1 X121.428 Y130.089 E50.73433
G1 X120.277 Y130.187 E50.77275
G1 X119.67 Y130.2 E50.79295
G1 X100.575 Y130.199 E51.42805
G1 X99.877 Y130.19 E51.45127
G1 X98.976 Y130.139 E51.48128
G1 X98.082 Y130.007 E51.51134
G1 X97.204 Y129.798 E51.54136
G1 X96.347 Y129.511 E51.57142
G1 X95.52 Y129.15 E51.60143
G1 X94.727 Y128.717 E51.63148
G1 X93.976 Y128.216 E51.66151
G1 X93.272 Y127.65 E51.69155
G1 X92.621 Y127.024 E51.72159
G1 X92.028 Y126.343 E51.75162
G1 X91.498 Y125.612 E51.78165
G1 X91.034 Y124.837 E51.8117
G1 X90.64 Y124.024 E51.84175
G1 X90.32 Y123.18 E51.87177
G1 X90.076 Y122.31 E51.90182
G1 X89.91 Y121.422 E51.93187
G1 X89.813 Y120.267 E51.97042
G1 X89.8 Y119.658 E51.99068
G1 X89.801 Y100.536 E52.62668
G1 X89.81 Y99.871 E52.6488
G1 X89.862 Y98.969 E52.67885
G1 X89.994 Y98.076 E52.70887
G1 X90.204 Y97.198 E52.7389
G1 X90.491 Y96.341 E52.76896
G1 X90.853 Y95.514 E52.79898
G1 X91.286 Y94.722 E52.82901
G1 X91.788 Y93.971 E52.85905
G1 X92.355 Y93.267 E52.88912
G1 X92.981 Y92.617 E52.91913
G1 F1500 E46.41913
;MESH:cubeWeek3.stl
G0 F7500 X100.414 Y99.335
G0 X119.4 Y119.4
;TYPE:WALL-INNER
G1 F1500 E52.91913
G1 F1350 X119.4 Y100.6 E53.54442
G1 X100.6 Y100.6 E54.16971
G1 X100.6 Y119.4 E54.795
G1 X119.4 Y119.4 E55.42029
G0 F7500 X119.8 Y119.8
;TYPE:WALL-OUTER
G1 F1350 X119.8 Y100.2 E56.07219
G1 X100.2 Y100.2 E56.72409
G1 X100.2 Y119.8 E57.37599
G1 X119.8 Y119.8 E58.02789
G0 F7500 X119.53 Y119.53
G0 X119.3 Y119.04
G0 X119.04 Y119.04
;TYPE:SKIN
G1 F1350 X100.96 Y119.04 E58.62923
G1 X100.96 Y100.96 E59.23057
G1 X119.04 Y100.96 E59.83192
G1 X119.04 Y119.04 E60.43326
G0 F7500 X118.748 Y118.84
G1 F1350 X118.84 Y118.748 E60.43759
G0 F7500 X118.84 Y118.182
G1 F1350 X118.182 Y118.84 E60.46854
G0 F7500 X117.617 Y118.84
