;FLAVOR:Marlin
;TIME:965
;Filament used: 0.742239m
;Layer height: 0.15
;MINX:106.82
;MINY:86.822
;MINZ:0.2
;MAXX:143.186
;MAXY:123.195
;MAXZ:30.131
;TARGET_MACHINE.NAME:Prusa i3 Mk3/Mk3s
;Generated with Cura_SteamEngine 5.7.0
M82 ;absolute extrusion mode
G21 ; set units to millimeters
G90 ; use absolute positioning
M82 ; absolute extrusion mode
M104 S200 ; set extruder temp
M140 S60 ; set bed temp
M190 S60 ; wait for bed temp
M109 S200 ; wait for extruder temp
G28 W ; home all without mesh bed level
G80 ; mesh bed leveling
G92 E0.0 ; reset extruder distance position
G1 Y-3.0 F1000.0 ; go outside print area
G1 X60.0 E9.0 F1000.0 ; intro line
G1 X100.0 E21.5 F1000.0 ; intro line
G92 E0.0 ; reset extruder distance position
G92 E0
G92 E0
G1 F2100 E-0.8
;LAYER_COUNT:200
;LAYER:0
M107
G0 F1800 X111.044 Y93.344 Z0.2
;TYPE:SKIRT
G1 F2100 E0
G1 F1800 X111.704 Y92.597 E0.03315
G1 X112.061 Y92.221 E0.0504
G1 X112.505 Y91.789 E0.071
G1 X113.135 Y91.215 E0.09935
G1 X113.919 Y90.58 E0.13291
G1 X114.483 Y90.166 E0.15618
G1 X115.137 Y89.722 E0.18247
G1 X115.743 Y89.347 E0.20617
G1 X116.286 Y89.035 E0.227
G1 X116.732 Y88.803 E0.24372
G1 X117.645 Y88.36 E0.27747
G1 X118.703 Y87.938 E0.31536
G1 X119.224 Y87.757 E0.3337
G1 X119.836 Y87.563 E0.35506
G1 X120.33 Y87.424 E0.37212
G1 X121.407 Y87.166 E0.40896
G1 X122.419 Y86.998 E0.44308
G1 X122.944 Y86.932 E0.46068
G1 X124.004 Y86.839 E0.49607
G1 X125.061 Y86.822 E0.53123
G1 X125.828 Y86.837 E0.55674
G1 X126.38 Y86.867 E0.57513
G1 X127.029 Y86.93 E0.59682
G1 X127.901 Y87.047 E0.62608
G1 X128.596 Y87.173 E0.64957
G1 X129.269 Y87.321 E0.67249
G1 X129.91 Y87.494 E0.69458
G1 X130.887 Y87.798 E0.72861
G1 X131.641 Y88.064 E0.7552
G1 X132.599 Y88.478 E0.78991
G1 X133.135 Y88.735 E0.80968
G1 X133.804 Y89.087 E0.83483
G1 X134.251 Y89.342 E0.85194
G1 X134.86 Y89.719 E0.87576
G1 X135.533 Y90.178 E0.90286
G1 X136.038 Y90.546 E0.92364
G1 X136.482 Y90.896 E0.94245
G1 X137.123 Y91.441 E0.97043
G1 X138 Y92.281 E1.01082
G1 X138.39 Y92.695 E1.02974
G1 X138.882 Y93.251 E1.05443
G1 X139.205 Y93.643 E1.07132
G1 X139.677 Y94.261 E1.09719
G1 X139.98 Y94.686 E1.11455
G1 X140.417 Y95.352 E1.14104
G1 X140.688 Y95.797 E1.15837
G1 X141.183 Y96.698 E1.19256
G1 X141.617 Y97.606 E1.22604
G1 X141.838 Y98.122 E1.24471
G1 X142.137 Y98.904 E1.27255
G1 X142.3 Y99.386 E1.28948
G1 X142.644 Y100.581 E1.33084
G1 X142.878 Y101.621 E1.36629
G1 X143.084 Y102.977 E1.41191
G1 X143.155 Y103.892 E1.44243
G1 X143.186 Y104.876 E1.47518
G1 X143.174 Y105.775 E1.50508
G1 X143.099 Y106.896 E1.54245
G1 X142.963 Y107.862 E1.5749
G1 X142.857 Y108.472 E1.59549
G1 X142.684 Y109.268 E1.62258
G1 X142.557 Y109.763 E1.63958
G1 X142.337 Y110.509 E1.66545
G1 X142.165 Y111.029 E1.68366
G1 X141.923 Y111.675 E1.70661
G1 X141.69 Y112.239 E1.7269
G1 X141.173 Y113.333 E1.76715
G1 X140.733 Y114.134 E1.79755
G1 X140.468 Y114.577 E1.81472
G1 X140.035 Y115.245 E1.84119
G1 X139.718 Y115.694 E1.85947
G1 X139.025 Y116.589 E1.89712
G1 X138.369 Y117.337 E1.93021
G1 X137.755 Y117.972 E1.95959
G1 X137.276 Y118.427 E1.98156
G1 X136.35 Y119.227 E2.02227
G1 X135.617 Y119.772 E2.05265
G1 X134.976 Y120.214 E2.07854
G1 X134.143 Y120.738 E2.11127
G1 X133.218 Y121.233 E2.14617
G1 X132.759 Y121.457 E2.16315
G1 X131.759 Y121.897 E2.19949
G1 X130.385 Y122.382 E2.24796
G1 X129.276 Y122.691 E2.28625
G1 X128.055 Y122.943 E2.32771
G1 X126.911 Y123.094 E2.36609
G1 X126.4 Y123.14 E2.38316
G1 X125.175 Y123.195 E2.42394
G1 X124.3 Y123.182 E2.45305
G1 X123.762 Y123.153 E2.47097
G1 X122.619 Y123.039 E2.50917
G1 X121.644 Y122.881 E2.54202
G1 X120.589 Y122.656 E2.5779
G1 X119.288 Y122.267 E2.62307
G1 X118.263 Y121.898 E2.6593
G1 X117.575 Y121.61 E2.68411
G1 X116.461 Y121.071 E2.72527
G1 X115.684 Y120.62 E2.75515
G1 X114.901 Y120.128 E2.78591
G1 X114.205 Y119.646 E2.81406
G1 X113.462 Y119.067 E2.84539
G1 X112.977 Y118.653 E2.8666
G1 X112.313 Y118.04 E2.89666
G1 X111.386 Y117.079 E2.94107
G1 X110.511 Y116.017 E2.98684
G1 X109.791 Y114.993 E3.02847
G1 X109.349 Y114.263 E3.05686
G1 X108.87 Y113.406 E3.08951
G1 X108.408 Y112.463 E3.12444
G1 X108.131 Y111.809 E3.14806
G1 X107.915 Y111.249 E3.16802
G1 X107.651 Y110.471 E3.19535
G1 X107.499 Y109.963 E3.21298
G1 X107.267 Y109.057 E3.24409
G1 X107.064 Y108.019 E3.27927
G1 X106.969 Y107.397 E3.3002
G1 X106.858 Y106.413 E3.33313
G1 X106.821 Y105.523 E3.36276
G1 X106.82 Y104.558 E3.39485
G1 X106.873 Y103.491 E3.43039
G1 X106.984 Y102.442 E3.46547
G1 X107.157 Y101.47 E3.49831
G1 X107.277 Y100.905 E3.51752
G1 X107.479 Y100.119 E3.54451
G1 X107.676 Y99.466 E3.5672
G1 X107.885 Y98.845 E3.58899
G1 X108.065 Y98.364 E3.60607
G1 X108.457 Y97.425 E3.63991
G1 X108.898 Y96.547 E3.67259
G1 X109.398 Y95.662 E3.7064
G1 X110.105 Y94.569 E3.7497
G1 X110.452 Y94.085 E3.76951
G1 X111.044 Y93.344 E3.80105
G1 F2100 E3.00105
;MESH:CylinderFill.stl
G0 F1800 X112.383 Y95.722
G0 X113.234 Y96.393
G0 X125.506 Y119.096
G0 X125.528 Y119.792
;TYPE:WALL-OUTER
G1 F2100 E3.80105
G1 F1800 X124.464 Y119.792 E3.83644
G1 X123.398 Y119.717 E3.87198
G1 X122.337 Y119.559 E3.90766
G1 X121.294 Y119.33 E3.94318
G1 X120.268 Y119.026 E3.97877
G1 X119.274 Y118.651 E4.0141
G1 X118.299 Y118.197 E4.04988
G1 X117.372 Y117.684 E4.08511
G1 X116.468 Y117.096 E4.12098
G1 X115.623 Y116.453 E4.1563
G1 X114.818 Y115.742 E4.19202
G1 X114.068 Y114.98 E4.22758
G1 X113.378 Y114.172 E4.26292
G1 X112.746 Y113.303 E4.29866
G1 X112.178 Y112.396 E4.33425
G1 X111.681 Y111.452 E4.36974
G1 X111.246 Y110.473 E4.40537
G1 X110.887 Y109.467 E4.4409
G1 X110.603 Y108.437 E4.47643
G1 X110.394 Y107.399 E4.51165
G1 X110.26 Y106.329 E4.54751
G1 X110.201 Y105.272 E4.58273
G1 X110.22 Y104.204 E4.61825
G1 X110.319 Y103.134 E4.65399
G1 X110.493 Y102.084 E4.68939
G1 X110.737 Y101.046 E4.72486
G1 X111.061 Y100.028 E4.76039
G1 X111.46 Y99.029 E4.79617
G1 X111.921 Y98.074 E4.83144
G1 X112.462 Y97.143 E4.86725
G1 X113.058 Y96.262 E4.90263
G1 X113.717 Y95.422 E4.93814
G1 X114.439 Y94.633 E4.97371
G1 X115.217 Y93.899 E5.00929
G1 X116.049 Y93.216 E5.04509
G1 X116.918 Y92.608 E5.08036
G1 X117.838 Y92.052 E5.11612
G1 X118.789 Y91.57 E5.15158
G1 X119.74 Y91.168 E5.18592
G1 X120.782 Y90.816 E5.2225
G1 X121.788 Y90.556 E5.25706
G1 X122.869 Y90.359 E5.29361
G1 X123.939 Y90.244 E5.3294
G1 X125.001 Y90.205 E5.36475
G1 X126.065 Y90.244 E5.40016
G1 X127.135 Y90.359 E5.43595
G1 X128.216 Y90.56 E5.47252
G1 X129.222 Y90.82 E5.50708
G1 X130.265 Y91.172 E5.54369
G1 X131.211 Y91.57 E5.57783
G1 X132.166 Y92.055 E5.61345
G1 X133.082 Y92.608 E5.64904
G1 X133.955 Y93.22 E5.6845
G1 X134.783 Y93.899 E5.72012
G1 X135.561 Y94.637 E5.75578
G1 X136.279 Y95.422 E5.79117
G1 X136.942 Y96.262 E5.82676
G1 X137.538 Y97.147 E5.86225
G1 X138.075 Y98.074 E5.89788
G1 X138.54 Y99.033 E5.93333
G1 X138.935 Y100.028 E5.96893
G1 X139.259 Y101.042 E6.00434
G1 X139.507 Y102.088 E6.04009
G1 X139.685 Y103.189 E6.07719
G1 X139.776 Y104.203 E6.11105
G1 X139.795 Y105.272 E6.14661
G1 X139.736 Y106.337 E6.18209
G1 X139.602 Y107.403 E6.21782
G1 X139.393 Y108.445 E6.25317
G1 X139.109 Y109.475 E6.2887
G1 X138.75 Y110.481 E6.32423
G1 X138.316 Y111.46 E6.35985
G1 X137.814 Y112.403 E6.39538
G1 X137.25 Y113.307 E6.43082
G1 X136.615 Y114.175 E6.46659
G1 X135.924 Y114.984 E6.50198
G1 X135.174 Y115.746 E6.53754
G1 X134.369 Y116.457 E6.57326
G1 X133.524 Y117.1 E6.60858
G1 X132.62 Y117.688 E6.64444
G1 X131.693 Y118.201 E6.67968
G1 X130.718 Y118.651 E6.7154
G1 X129.723 Y119.03 E6.75081
G1 X128.698 Y119.334 E6.78637
G1 X127.656 Y119.563 E6.82186
G1 X126.594 Y119.717 E6.85755
G1 X125.528 Y119.792 E6.89309
G0 X125.727 Y119.778
G0 X125.508 Y119.412
;TYPE:SKIN
G1 X124.48 Y119.412 E6.92728
G1 X123.442 Y119.337 E6.9619
G1 X122.401 Y119.183 E6.9969
G1 X121.387 Y118.958 E7.03144
G1 X120.384 Y118.662 E7.06622
G1 X119.422 Y118.299 E7.10042
G1 X118.467 Y117.853 E7.13548
G1 X117.568 Y117.356 E7.16965
G1 X116.684 Y116.78 E7.20474
G1 X115.867 Y116.157 E7.23891
G1 X115.078 Y115.462 E7.27388
G1 X114.344 Y114.72 E7.3086
G1 X113.674 Y113.932 E7.343
G1 X113.062 Y113.092 E7.37757
G1 X112.506 Y112.2 E7.41252
G1 X112.02 Y111.28 E7.44713
G1 X111.594 Y110.325 E7.48191
G1 X111.247 Y109.347 E7.51643
G1 X110.971 Y108.345 E7.55099
G1 X110.77 Y107.339 E7.58512
G1 X110.636 Y106.289 E7.62032
G1 X110.581 Y105.268 E7.65433
G1 X110.6 Y104.227 E7.68896
G1 X110.695 Y103.178 E7.72399
G1 X110.865 Y102.16 E7.75832
G1 X111.101 Y101.15 E7.79282
G1 X111.417 Y100.16 E7.82738
G1 X111.808 Y99.185 E7.86232
G1 X112.257 Y98.25 E7.89682
G1 X112.786 Y97.343 E7.93174
G1 X113.362 Y96.486 E7.96609
G1 X114.005 Y95.67 E8.00064
G1 X114.707 Y94.901 E8.03527
G1 X115.465 Y94.187 E8.06991
G1 X116.282 Y93.516 E8.10507
G1 X117.126 Y92.924 E8.13936
G1 X118.022 Y92.383 E8.17417
G1 X118.945 Y91.914 E8.2086
G1 X119.871 Y91.524 E8.24202
G1 X120.886 Y91.18 E8.27767
G1 X121.836 Y90.932 E8.31032
G1 X122.921 Y90.735 E8.347
G1 X123.971 Y90.624 E8.38212
G1 X125.001 Y90.585 E8.4164
G1 X126.033 Y90.624 E8.45075
G1 X127.082 Y90.735 E8.48584
G1 X128.164 Y90.94 E8.52246
G1 X129.114 Y91.184 E8.55509
G1 X130.16 Y91.54 E8.59184
G1 X131.047 Y91.914 E8.62385
G1 X131.982 Y92.388 E8.65872
G1 X132.87 Y92.924 E8.69322
G1 X133.718 Y93.52 E8.72769
G1 X134.527 Y94.183 E8.76248
G1 X135.289 Y94.905 E8.79739
G1 X135.987 Y95.666 E8.83174
G1 X136.63 Y96.482 E8.86629
G1 X137.21 Y97.347 E8.90093
G1 X137.739 Y98.254 E8.93586
G1 X138.188 Y99.185 E8.97023
G1 X138.575 Y100.152 E9.00488
G1 X138.891 Y101.138 E9.03931
G1 X139.131 Y102.163 E9.07433
G1 X139.309 Y103.285 E9.11211
G1 X139.396 Y104.219 E9.14331
G1 X139.411 Y105.26 E9.17794
G1 X139.356 Y106.297 E9.21248
G1 X139.222 Y107.343 E9.24755
G1 X139.021 Y108.353 E9.2818
G1 X138.745 Y109.355 E9.31637
G1 X138.398 Y110.333 E9.35089
G1 X137.972 Y111.288 E9.38567
G1 X137.486 Y112.208 E9.42027
G1 X136.938 Y113.087 E9.45473
G1 X136.315 Y113.939 E9.48983
G1 X135.644 Y114.724 E9.52418
G1 X134.914 Y115.466 E9.5588
G1 X134.125 Y116.161 E9.59377
G1 X133.308 Y116.784 E9.62794
G1 X132.421 Y117.36 E9.66312
G1 X131.521 Y117.857 E9.69731
G1 X130.566 Y118.299 E9.73232
G1 X129.603 Y118.666 E9.76659
G1 X128.605 Y118.962 E9.80121
G1 X127.592 Y119.187 E9.83573
G1 X126.55 Y119.337 E9.87074
G1 X125.508 Y119.412 E9.90549
G0 X125.508 Y119.095
G0 X116.099 Y115.939
G0 X116.029 Y116.029
G1 X113.959 Y113.959 E10.00286
G1 X113.889 Y113.889
G0 X113.988 Y113.807
G0 X112.802 Y112.075
G0 X112.702 Y112.137
G1 X117.848 Y117.282 E10.24488
G1 X117.918 Y117.352
G0 X117.987 Y117.228
G0 X119.072 Y117.789
G0 X119.024 Y117.893
G1 X112.1 Y110.969 E10.57057
G1 X112.03 Y110.899
G0 X111.688 Y109.99
G1 X120 Y118.303 E10.96156
G1 X120.07 Y118.373
G0 X120.855 Y118.592
G1 X111.395 Y109.132 E11.40653
G1 X111.325 Y109.062
G0 X111.18 Y108.351
G1 X121.637 Y118.808 E11.8984
G0 X122.364 Y118.97
G1 X111.033 Y107.639 E12.43137
G0 X110.922 Y106.963
G1 X123.034 Y119.075 E13.00108
G0 X123.679 Y119.153
G1 X110.84 Y106.314 E13.60499
G0 X110.804 Y105.713
G1 X124.288 Y119.197 E14.23924
G0 X124.869 Y119.212
G1 X110.783 Y105.126 E14.9018
G0 X110.794 Y104.571
G1 X125.434 Y119.212 E15.59044
G0 X125.966 Y119.178
G1 X110.818 Y104.03 E16.30296
G0 X110.865 Y103.511
G1 X126.494 Y119.14 E17.0381
G0 X126.991 Y119.071
G1 X110.926 Y103.006 E17.79375
G0 X111.007 Y102.521
G1 X127.485 Y119 E18.56885
G0 X127.952 Y118.901
G1 X111.096 Y102.045 E19.3617
G0 X111.204 Y101.587
G1 X128.416 Y118.799 E20.1713
G0 X128.86 Y118.677
G1 X111.316 Y101.133 E20.99652
G0 X111.453 Y100.705
G1 X129.296 Y118.548 E21.8358
G0 X129.72 Y118.406
G1 X111.59 Y100.276 E22.68858
G0 X111.749 Y99.87
G1 X130.13 Y118.251 E23.55316
G0 X130.537 Y118.092
G1 X111.91 Y99.465 E24.42932
G0 X112.083 Y99.073
G1 X130.924 Y117.913 E25.31552
G0 X131.31 Y117.734
G1 X112.267 Y98.691 E26.21124
G0 X112.453 Y98.311
G1 X131.682 Y117.54 E27.11572
G0 X132.046 Y117.338
G1 X112.661 Y97.953 E28.02753
G0 X112.87 Y97.596
G1 X132.404 Y117.131 E28.94637
G0 X132.747 Y116.908
G1 X113.089 Y97.25 E29.87102
G0 X113.317 Y96.912
G1 X133.09 Y116.685 E30.80108
G0 X133.418 Y116.448
G1 X113.546 Y96.575 E31.73582
G0 X113.795 Y96.259
G1 X133.739 Y116.203 E32.67393
G0 X134.056 Y115.954
G1 X114.044 Y95.942 E33.61523
G0 X114.305 Y95.638
G1 X134.357 Y115.69 E34.55842
G0 X134.658 Y115.425
G1 X114.575 Y95.341 E35.50308
G0 X114.845 Y95.046
G1 X134.947 Y115.148 E36.44862
G0 X135.228 Y114.863
G1 X115.136 Y94.771 E37.39369
G0 X115.427 Y94.497
G1 X135.508 Y114.577 E38.33821
G0 X135.769 Y114.273
G1 X115.727 Y94.231 E39.28092
G0 X116.038 Y93.976
G1 X136.029 Y113.967 E40.22124
G0 X136.279 Y113.651
G1 X116.349 Y93.721 E41.15869
G0 X116.677 Y93.484
G1 X136.518 Y113.324 E42.09192
G0 X136.757 Y112.998
G1 X117.01 Y93.251 E43.02076
G0 X117.349 Y93.024
G1 X136.975 Y112.651 E43.94393
G0 X137.192 Y112.302
G1 X117.701 Y92.811 E44.86073
G0 X118.054 Y92.598
G1 X137.4 Y111.944 E45.7707
G0 X137.595 Y111.574
G1 X118.425 Y92.403 E46.67243
G0 X118.8 Y92.213
G1 X137.79 Y111.203 E47.56566
G0 X137.966 Y110.813
G1 X119.184 Y92.031 E48.44911
G0 X119.582 Y91.863
G1 X138.14 Y110.422 E49.32204
G0 X138.299 Y110.015
G1 X119.982 Y91.698 E50.18362
G0 X120.405 Y91.555
G1 X138.447 Y109.597 E51.03226
G0 X138.588 Y109.172
G1 X120.827 Y91.411 E51.86768
G0 X121.268 Y91.287
G1 X138.71 Y108.729 E52.6881
G0 X138.831 Y108.284
G1 X121.717 Y91.17 E53.49309
G0 X122.185 Y91.072
G1 X138.925 Y107.812 E54.28049
G0 X139.019 Y107.34
G1 X122.663 Y90.985 E55.0498
G0 X123.155 Y90.911
G1 X139.084 Y106.84 E55.79905
G0 X139.149 Y106.34
G1 X123.667 Y90.858 E56.52728
G0 X124.192 Y90.817
G1 X139.182 Y105.807 E57.23236
G0 X139.21 Y105.269
G1 X124.737 Y90.796 E57.91312
G0 X125.304 Y90.797
G1 X139.203 Y104.696 E58.56689
G0 X139.185 Y104.113
G1 X125.892 Y90.819 E59.19218
G0 X126.514 Y90.876
G1 X139.127 Y103.489 E59.78545
G0 X139.034 Y102.83
G1 X127.156 Y90.952 E60.34416
G0 X127.855 Y91.085
G1 X138.925 Y102.155 E60.86486
G0 X138.751 Y101.415
G1 X128.592 Y91.257 E61.34268
G1 X128.522 Y91.187
G0 X129.391 Y91.49
G1 X138.512 Y100.611 E61.77171
G1 X138.582 Y100.681
G0 X138.425 Y100.73
G0 X138.08 Y99.764
G0 X138.188 Y99.721
G1 X130.271 Y91.804 E62.1441
G1 X130.201 Y91.734
G0 X130.14 Y91.88
G0 X131.244 Y92.371
G0 X131.298 Y92.266
G1 X137.732 Y98.699 E62.44671
G1 X137.802 Y98.769
G0 X137.667 Y98.833
G0 X136.924 Y97.483
G0 X137.017 Y97.42
G1 X132.583 Y92.985 E62.65529
G1 X132.513 Y92.915
G0 X132.284 Y93.293
M104 S200
G1 F2100 E61.85529
;MESH:NONMESH
G0 F600 X132.284 Y93.293 Z0.35
G0 F1800 X115.372 Y94.057
G0 X114.627 Y93.269
G0 X111.044 Y93.344
;TIME_ELAPSED:75.640616
;LAYER:1
M106 S255
;TYPE:SKIRT
G1 F2100 E62.65529
G1 F1800 X111.704 Y92.597 E62.68016
G1 X112.061 Y92.221 E62.69309
G1 X112.505 Y91.789 E62.70855
G1 X113.135 Y91.215 E62.72981
G1 X113.919 Y90.58 E62.75497
G1 X114.483 Y90.166 E62.77243
G1 X115.137 Y89.722 E62.79214
G1 X115.743 Y89.347 E62.80992
G1 X116.286 Y89.035 E62.82554
G1 X116.732 Y88.803 E62.83808
G1 X117.645 Y88.36 E62.8634
G1 X118.703 Y87.938 E62.89181
G1 X119.224 Y87.757 E62.90557
G1 X119.836 Y87.563 E62.92159
G1 X120.33 Y87.424 E62.93439
G1 X121.407 Y87.166 E62.96201
G1 X122.419 Y86.998 E62.9876
G1 X122.944 Y86.932 E63.0008
G1 X124.004 Y86.839 E63.02735
G1 X125.061 Y86.822 E63.05372
G1 X125.828 Y86.837 E63.07285
G1 X126.38 Y86.867 E63.08664
G1 X127.029 Y86.93 E63.10291
G1 X127.901 Y87.047 E63.12486
G1 X128.596 Y87.173 E63.14247
G1 X129.269 Y87.321 E63.15966
G1 X129.91 Y87.494 E63.17623
G1 X130.887 Y87.798 E63.20175
G1 X131.641 Y88.064 E63.22169
G1 X132.599 Y88.478 E63.24773
G1 X133.135 Y88.735 E63.26256
G1 X133.804 Y89.087 E63.28141
G1 X134.251 Y89.342 E63.29425
G1 X134.86 Y89.719 E63.31212
G1 X135.533 Y90.178 E63.33244
G1 X136.038 Y90.546 E63.34803
G1 X136.482 Y90.896 E63.36213
G1 X137.123 Y91.441 E63.38312
G1 X138 Y92.281 E63.41341
G1 X138.39 Y92.695 E63.4276
G1 X138.882 Y93.251 E63.44612
G1 X139.205 Y93.643 E63.45879
G1 X139.677 Y94.261 E63.47819
G1 X139.98 Y94.686 E63.49121
G1 X140.417 Y95.352 E63.51108
G1 X140.688 Y95.797 E63.52407
G1 X141.183 Y96.698 E63.54972
G1 X141.617 Y97.606 E63.57482
G1 X141.838 Y98.122 E63.58882
G1 X142.137 Y98.904 E63.60971
G1 X142.3 Y99.386 E63.6224
G1 X142.644 Y100.581 E63.65342
G1 X142.878 Y101.621 E63.68001
G1 X143.084 Y102.977 E63.71423
G1 X143.155 Y103.892 E63.73712
G1 X143.186 Y104.876 E63.76168
