;FLAVOR:Marlin
;TIME:1636
;Filament used: 1.39736m
;Layer height: 0.15
;MINX:106.82
;MINY:86.822
;MINZ:0.2
;MAXX:183.186
;MAXY:123.195
;MAXZ:30.05
;TARGET_MACHINE.NAME:Prusa i3 Mk3/Mk3s
;Generated with Cura_SteamEngine 5.7.0
M82 ;absolute extrusion mode
G21 ; set units to millimeters
G90 ; use absolute positioning
M82 ; absolute extrusion mode
M104 S200 ; set extruder temp
M140 S60 ; set bed temp
M190 S60 ; wait for bed temp
M109 S200 ; wait for extruder temp
G28 W ; home all without mesh bed level
G80 ; mesh bed leveling
G92 E0.0 ; reset extruder distance position
G1 Y-3.0 F1000.0 ; go outside print area
G1 X60.0 E9.0 F1000.0 ; intro line
G1 X100.0 E21.5 F1000.0 ; intro line
G92 E0.0 ; reset extruder distance position
G92 E0
G92 E0
G1 F2100 E-0.8
;LAYER_COUNT:200
;LAYER:0
M107
G0 F3600 X111.044 Y93.344 Z0.2
;TYPE:SKIRT
G1 F2100 E0
G1 F1800 X111.704 Y92.597 E0.03315
G1 X112.061 Y92.221 E0.0504
G1 X112.505 Y91.789 E0.071
G1 X113.135 Y91.215 E0.09935
G1 X113.919 Y90.58 E0.13291
G1 X114.483 Y90.166 E0.15618
G1 X115.137 Y89.722 E0.18247
G1 X115.743 Y89.347 E0.20617
G1 X116.286 Y89.035 E0.227
G1 X116.732 Y88.803 E0.24372
G1 X117.645 Y88.36 E0.27747
G1 X118.703 Y87.938 E0.31536
G1 X119.224 Y87.757 E0.3337
G1 X119.836 Y87.563 E0.35506
G1 X120.33 Y87.424 E0.37212
G1 X121.407 Y87.166 E0.40896
G1 X122.419 Y86.998 E0.44308
G1 X122.944 Y86.932 E0.46068
G1 X124.004 Y86.839 E0.49607
G1 X125.061 Y86.822 E0.53123
G1 X125.828 Y86.837 E0.55674
G1 X126.38 Y86.867 E0.57513
G1 X126.993 Y86.926 E0.59561
G1 X127.53 Y86.992 E0.61361
G1 X131.018 Y87.551 E0.7311
G1 X133.723 Y87.908 E0.82185
G1 X136.449 Y88.188 E0.91299
G1 X139.165 Y88.39 E1.00358
G1 X141.949 Y88.518 E1.09627
G1 X144.632 Y88.566 E1.18552
G1 X147.384 Y88.538 E1.27706
G1 X150.135 Y88.431 E1.36863
G1 X152.887 Y88.245 E1.46037
G1 X155.552 Y87.991 E1.54941
G1 X158.313 Y87.647 E1.64195
G1 X161.067 Y87.224 E1.73462
G1 X162.319 Y87.013 E1.77685
G1 X162.946 Y86.932 E1.79788
G1 X164.004 Y86.839 E1.8332
G1 X165.06 Y86.822 E1.86833
G1 X165.828 Y86.837 E1.89388
G1 X166.38 Y86.867 E1.91227
G1 X167.029 Y86.93 E1.93395
G1 X167.901 Y87.047 E1.96322
G1 X168.596 Y87.173 E1.98671
G1 X169.269 Y87.321 E2.00963
G1 X169.91 Y87.494 E2.03171
G1 X170.887 Y87.798 E2.06574
G1 X171.641 Y88.064 E2.09233
G1 X172.599 Y88.478 E2.12705
G1 X173.135 Y88.735 E2.14682
G1 X173.804 Y89.087 E2.17196
G1 X174.251 Y89.342 E2.18908
G1 X174.86 Y89.719 E2.2129
G1 X175.533 Y90.178 E2.23999
G1 X176.038 Y90.546 E2.26078
G1 X176.482 Y90.896 E2.27958
G1 X177.123 Y91.441 E2.30756
G1 X178 Y92.281 E2.34795
G1 X178.39 Y92.695 E2.36687
G1 X178.882 Y93.251 E2.39157
G1 X179.205 Y93.643 E2.40846
G1 X179.677 Y94.261 E2.43432
G1 X179.98 Y94.686 E2.45168
G1 X180.417 Y95.352 E2.47818
G1 X180.688 Y95.797 E2.49551
G1 X181.183 Y96.698 E2.5297
G1 X181.617 Y97.606 E2.56317
G1 X181.838 Y98.122 E2.58184
G1 X182.137 Y98.904 E2.60969
G1 X182.3 Y99.386 E2.62661
G1 X182.644 Y100.581 E2.66797
G1 X182.878 Y101.621 E2.70343
G1 X183.084 Y102.977 E2.74904
G1 X183.155 Y103.892 E2.77957
G1 X183.186 Y104.876 E2.81231
G1 X183.174 Y105.775 E2.84222
G1 X183.099 Y106.896 E2.87958
G1 X182.963 Y107.862 E2.91203
G1 X182.857 Y108.472 E2.93262
G1 X182.684 Y109.268 E2.95972
G1 X182.557 Y109.763 E2.97671
G1 X182.337 Y110.509 E3.00258
G1 X182.165 Y111.029 E3.0208
G1 X181.923 Y111.675 E3.04374
G1 X181.69 Y112.239 E3.06404
G1 X181.173 Y113.333 E3.10428
G1 X180.733 Y114.134 E3.13468
G1 X180.468 Y114.577 E3.15185
G1 X180.035 Y115.245 E3.17833
G1 X179.718 Y115.694 E3.19661
G1 X179.025 Y116.589 E3.23426
G1 X178.369 Y117.337 E3.26735
G1 X177.755 Y117.972 E3.29673
G1 X177.276 Y118.427 E3.3187
G1 X176.35 Y119.227 E3.3594
G1 X175.617 Y119.772 E3.38978
G1 X174.976 Y120.214 E3.41568
G1 X174.143 Y120.738 E3.44841
G1 X173.218 Y121.233 E3.4833
G1 X172.759 Y121.457 E3.50029
G1 X171.759 Y121.897 E3.53663
G1 X170.385 Y122.382 E3.58509
G1 X169.276 Y122.691 E3.62338
G1 X168.055 Y122.943 E3.66485
G1 X166.911 Y123.094 E3.70323
G1 X166.4 Y123.14 E3.72029
G1 X165.175 Y123.195 E3.76108
G1 X164.3 Y123.182 E3.79018
G1 X163.762 Y123.153 E3.8081
G1 X162.62 Y123.039 E3.84627
G1 X160.816 Y122.755 E3.90701
G1 X160.046 Y122.623 E3.933
G1 X157.316 Y122.233 E4.02472
G1 X154.619 Y121.924 E4.11501
G1 X151.903 Y121.691 E4.20568
G1 X149.162 Y121.535 E4.29699
G1 X146.405 Y121.455 E4.38873
G1 X143.687 Y121.453 E4.47913
G1 X140.936 Y121.529 E4.57066
G1 X138.221 Y121.681 E4.6611
G1 X135.481 Y121.912 E4.75256
G1 X132.739 Y122.223 E4.84434
G1 X130.04 Y122.605 E4.93501
G1 X127.729 Y122.989 E5.01292
G1 X126.911 Y123.094 E5.04035
G1 X126.4 Y123.14 E5.05742
G1 X125.176 Y123.195 E5.09817
G1 X124.302 Y123.182 E5.12724
G1 X123.762 Y123.153 E5.14523
G1 X122.619 Y123.039 E5.18343
G1 X121.644 Y122.881 E5.21629
G1 X120.589 Y122.656 E5.25216
G1 X119.288 Y122.267 E5.29733
G1 X118.263 Y121.898 E5.33356
G1 X117.575 Y121.61 E5.35837
G1 X116.461 Y121.071 E5.39953
G1 X115.684 Y120.62 E5.42941
G1 X114.901 Y120.128 E5.46017
G1 X114.205 Y119.646 E5.48833
G1 X113.462 Y119.067 E5.51966
G1 X112.977 Y118.653 E5.54087
G1 X112.313 Y118.04 E5.57092
G1 X111.386 Y117.079 E5.61533
G1 X110.511 Y116.017 E5.6611
G1 X109.791 Y114.993 E5.70273
G1 X109.349 Y114.263 E5.73112
G1 X108.87 Y113.406 E5.76377
G1 X108.408 Y112.463 E5.7987
G1 X108.131 Y111.809 E5.82232
G1 X107.915 Y111.249 E5.84228
G1 X107.651 Y110.471 E5.86961
G1 X107.499 Y109.963 E5.88725
G1 X107.267 Y109.057 E5.91835
G1 X107.064 Y108.019 E5.95353
G1 X106.969 Y107.397 E5.97446
G1 X106.858 Y106.413 E6.00739
G1 X106.821 Y105.523 E6.03702
G1 X106.82 Y104.558 E6.06912
G1 X106.873 Y103.491 E6.10465
G1 X106.984 Y102.442 E6.13973
G1 X107.157 Y101.47 E6.17257
G1 X107.277 Y100.905 E6.19178
G1 X107.479 Y100.119 E6.21877
G1 X107.676 Y99.466 E6.24146
G1 X107.885 Y98.845 E6.26325
G1 X108.065 Y98.364 E6.28033
G1 X108.457 Y97.425 E6.31418
G1 X108.898 Y96.547 E6.34686
G1 X109.398 Y95.662 E6.38066
G1 X110.105 Y94.569 E6.42396
G1 X110.452 Y94.085 E6.44377
G1 X111.044 Y93.344 E6.47531
G1 F2100 E5.67531
;MESH:tubeZeroThick.stl
G0 F3600 X112.383 Y95.722
G0 X113.234 Y96.393
G0 X125.506 Y119.096
G0 X125.528 Y119.792
;TYPE:WALL-OUTER
G1 F2100 E6.47531
G1 F1800 X124.464 Y119.792 E6.5107
G1 X123.398 Y119.717 E6.54625
G1 X122.337 Y119.559 E6.58192
G1 X121.294 Y119.33 E6.61744
G1 X120.268 Y119.026 E6.65303
G1 X119.274 Y118.651 E6.68837
G1 X118.299 Y118.197 E6.72414
G1 X117.372 Y117.684 E6.75938
G1 X116.468 Y117.096 E6.79524
G1 X115.623 Y116.453 E6.83056
G1 X114.818 Y115.742 E6.86628
G1 X114.068 Y114.98 E6.90184
G1 X113.378 Y114.172 E6.93718
G1 X112.746 Y113.303 E6.97292
G1 X112.178 Y112.396 E7.00852
G1 X111.681 Y111.452 E7.044
G1 X111.246 Y110.473 E7.07963
G1 X110.887 Y109.467 E7.11516
G1 X110.603 Y108.437 E7.15069
G1 X110.394 Y107.399 E7.18591
G1 X110.26 Y106.329 E7.22178
G1 X110.201 Y105.272 E7.25699
G1 X110.22 Y104.204 E7.29252
G1 X110.319 Y103.134 E7.32826
G1 X110.493 Y102.084 E7.36366
G1 X110.737 Y101.046 E7.39912
G1 X111.061 Y100.028 E7.43465
G1 X111.46 Y99.029 E7.47043
G1 X111.921 Y98.074 E7.5057
G1 X112.462 Y97.143 E7.54152
G1 X113.058 Y96.262 E7.57689
G1 X113.717 Y95.422 E7.6124
G1 X114.439 Y94.633 E7.64798
G1 X115.217 Y93.899 E7.68355
G1 X116.049 Y93.216 E7.71935
G1 X116.918 Y92.608 E7.75463
G1 X117.838 Y92.052 E7.79038
G1 X118.789 Y91.57 E7.82584
G1 X119.74 Y91.168 E7.86018
G1 X120.782 Y90.816 E7.89676
G1 X121.788 Y90.556 E7.93132
G1 X122.869 Y90.359 E7.96787
G1 X123.939 Y90.244 E8.00366
G1 X125.001 Y90.205 E8.03901
G1 X126.065 Y90.244 E8.07442
G1 X127.135 Y90.359 E8.11021
G1 X128.216 Y90.56 E8.14678
G1 X129.222 Y90.82 E8.18134
G1 X130.265 Y91.172 E8.21796
G1 X131.211 Y91.57 E8.25209
G1 X132.166 Y92.055 E8.28772
G1 X133.082 Y92.608 E8.3233
G1 X133.955 Y93.22 E8.35876
G1 X134.783 Y93.899 E8.39438
G1 X135.561 Y94.637 E8.43005
G1 X136.279 Y95.422 E8.46543
G1 X136.942 Y96.262 E8.50102
G1 X137.538 Y97.147 E8.53651
G1 X138.075 Y98.074 E8.57214
G1 X138.54 Y99.033 E8.60759
G1 X138.935 Y100.028 E8.6432
G1 X139.259 Y101.042 E8.6786
G1 X139.507 Y102.088 E8.71436
G1 X139.685 Y103.189 E8.75145
G1 X139.776 Y104.203 E8.78531
G1 X139.795 Y105.272 E8.82087
G1 X139.736 Y106.337 E8.85635
G1 X139.602 Y107.403 E8.89208
G1 X139.393 Y108.445 E8.92743
G1 X139.109 Y109.475 E8.96297
G1 X138.75 Y110.481 E8.99849
G1 X138.316 Y111.46 E9.03411
G1 X137.814 Y112.403 E9.06964
G1 X137.25 Y113.307 E9.10508
G1 X136.615 Y114.175 E9.14085
G1 X135.924 Y114.984 E9.17624
G1 X135.174 Y115.746 E9.2118
G1 X134.369 Y116.457 E9.24752
G1 X133.524 Y117.1 E9.28284
G1 X132.62 Y117.688 E9.31871
G1 X131.693 Y118.201 E9.35395
G1 X130.718 Y118.651 E9.38966
G1 X129.723 Y119.03 E9.42507
G1 X128.698 Y119.334 E9.46063
G1 X127.656 Y119.563 E9.49612
G1 X126.594 Y119.717 E9.53181
G1 X125.528 Y119.792 E9.56735
G0 F3600 X125.727 Y119.778
G0 X125.657 Y118.784
G1 F2100 E8.76735
;MESH:tubeZeroThick.stl(1)
G0 F3600 X138.902 Y109.4
G0 X139.946 Y109.689
G0 X149.357 Y104.185
G0 X150.441 Y104.204
G0 X151.014 Y103.216
G0 X150.716 Y103.185
;TYPE:WALL-INNER
G1 F2100 E9.56735
G1 F1800 X150.62 Y104.226 E9.60212
G1 X150.601 Y105.264 E9.63665
G1 X150.658 Y106.293 E9.67093
G1 X150.789 Y107.335 E9.70586
G1 X150.992 Y108.344 E9.74009
G1 X151.269 Y109.347 E9.7747
G1 X151.618 Y110.325 E9.80924
G1 X152.041 Y111.278 E9.84392
G1 X152.525 Y112.196 E9.87843
G1 X153.078 Y113.079 E9.91309
G1 X153.692 Y113.924 E9.94783
G1 X154.363 Y114.71 E9.9822
G1 X155.093 Y115.452 E10.01682
G1 X155.877 Y116.143 E10.05158
G1 X156.698 Y116.769 E10.08592
G1 X157.578 Y117.341 E10.12083
G1 X158.481 Y117.84 E10.15514
G1 X159.429 Y118.282 E10.18993
G1 X160.396 Y118.646 E10.2243
G1 X161.394 Y118.942 E10.25892
G1 X162.409 Y119.165 E10.29348
G1 X163.442 Y119.319 E10.32822
G1 X164.478 Y119.392 E10.36276
G1 X165.514 Y119.392 E10.39722
G1 X166.551 Y119.319 E10.4318
G1 X167.584 Y119.169 E10.46652
G1 X168.598 Y118.946 E10.50105
G1 X169.595 Y118.651 E10.53563
G1 X170.563 Y118.282 E10.57009
G1 X171.512 Y117.844 E10.60485
G1 X172.414 Y117.345 E10.63913
G1 X173.294 Y116.773 E10.67404
G1 X174.115 Y116.147 E10.70838
G1 X174.899 Y115.456 E10.74314
G1 X175.629 Y114.714 E10.77776
G1 X176.301 Y113.927 E10.81218
G1 X176.918 Y113.083 E10.84695
G1 X177.467 Y112.203 E10.88145
G1 X177.956 Y111.285 E10.91605
G1 X178.378 Y110.333 E10.95068
G1 X178.727 Y109.355 E10.98522
G1 X179.003 Y108.352 E11.01982
G1 X179.207 Y107.339 E11.05419
G1 X179.338 Y106.301 E11.08898
G1 X179.395 Y105.264 E11.12353
G1 X179.376 Y104.225 E11.15809
G1 X179.288 Y103.239 E11.19102
G1 X179.115 Y102.166 E11.22716
G1 X178.873 Y101.149 E11.26193
G1 X178.558 Y100.163 E11.29636
G1 X178.174 Y99.195 E11.331
G1 X177.721 Y98.262 E11.36549
G1 X177.198 Y97.359 E11.4002
G1 X176.619 Y96.498 E11.43471
G1 X175.974 Y95.681 E11.46933
G1 X175.275 Y94.917 E11.50377
G1 X174.518 Y94.199 E11.53848
G1 X173.713 Y93.539 E11.5731
G1 X172.864 Y92.944 E11.60758
G1 X171.972 Y92.405 E11.64225
G1 X171.043 Y91.933 E11.6769
G1 X170.123 Y91.546 E11.7101
G1 X169.108 Y91.204 E11.74572
G1 X168.129 Y90.951 E11.77935
G1 X167.077 Y90.755 E11.81495
G1 X166.036 Y90.643 E11.84977
G1 X165.001 Y90.605 E11.88422
G1 X163.968 Y90.643 E11.9186
G1 X162.926 Y90.755 E11.95346
G1 X161.874 Y90.947 E11.98902
G1 X160.896 Y91.2 E12.02262
G1 X159.882 Y91.542 E12.05821
G1 X158.957 Y91.933 E12.09162
G1 X158.032 Y92.402 E12.12611
G1 X157.136 Y92.943 E12.16092
G1 X156.291 Y93.535 E12.19524
G1 X155.481 Y94.199 E12.23007
G1 X154.724 Y94.914 E12.26471
G1 X154.023 Y95.681 E12.29927
G1 X153.382 Y96.498 E12.33381
G1 X152.801 Y97.356 E12.36827
G1 X152.275 Y98.262 E12.40311
G1 X151.826 Y99.191 E12.43743
G1 X151.438 Y100.163 E12.47224
G1 X151.123 Y101.152 E12.50676
G1 X150.885 Y102.162 E12.54128
G1 X150.716 Y103.185 E12.57576
G0 F3600 X151.014 Y103.216
G0 X174.696 Y115.243
G0 X175.174 Y115.746
;TYPE:WALL-OUTER
G1 F1800 X175.924 Y114.984 E12.61132
G1 X176.615 Y114.175 E12.64671
G1 X177.25 Y113.307 E12.68248
G1 X177.814 Y112.403 E12.71792
G1 X178.316 Y111.46 E12.75345
G1 X178.75 Y110.481 E12.78907
G1 X179.109 Y109.475 E12.8246
G1 X179.393 Y108.445 E12.86013
G1 X179.602 Y107.403 E12.89548
G1 X179.736 Y106.337 E12.93121
G1 X179.795 Y105.272 E12.96669
G1 X179.776 Y104.203 E13.00225
G1 X179.685 Y103.189 E13.03611
G1 X179.507 Y102.088 E13.07321
G1 X179.259 Y101.042 E13.10896
G1 X178.935 Y100.028 E13.14437
G1 X178.54 Y99.033 E13.17997
G1 X178.075 Y98.074 E13.21542
G1 X177.538 Y97.147 E13.25105
G1 X176.942 Y96.262 E13.28654
G1 X176.279 Y95.422 E13.32213
G1 X175.561 Y94.637 E13.35752
G1 X174.783 Y93.899 E13.39318
G1 X173.955 Y93.22 E13.4288
G1 X173.082 Y92.608 E13.46426
G1 X172.166 Y92.055 E13.49985
G1 X171.211 Y91.57 E13.53547
G1 X170.265 Y91.172 E13.56961
G1 X169.222 Y90.82 E13.60622
G1 X168.216 Y90.56 E13.64078
G1 X167.135 Y90.359 E13.67735
G1 X166.065 Y90.244 E13.71314
G1 X165.001 Y90.205 E13.74856
G1 X163.939 Y90.244 E13.7839
G1 X162.869 Y90.359 E13.8197
G1 X161.788 Y90.556 E13.85624
G1 X160.782 Y90.816 E13.8908
G1 X159.74 Y91.168 E13.92738
G1 X158.789 Y91.57 E13.96172
G1 X157.838 Y92.052 E13.99718
G1 X156.918 Y92.608 E14.03294
G1 X156.049 Y93.216 E14.06821
G1 X155.217 Y93.899 E14.10401
G1 X154.439 Y94.633 E14.13959
G1 X153.717 Y95.422 E14.17516
G1 X153.058 Y96.262 E14.21067
G1 X152.462 Y97.143 E14.24605
G1 X151.921 Y98.074 E14.28186
G1 X151.46 Y99.029 E14.31713
G1 X151.061 Y100.028 E14.35291
G1 X150.737 Y101.046 E14.38844
G1 X150.493 Y102.084 E14.42391
G1 X150.319 Y103.134 E14.45931
G1 X150.22 Y104.204 E14.49505
G1 X150.201 Y105.272 E14.53058
G1 X150.26 Y106.329 E14.56579
G1 X150.394 Y107.399 E14.60165
G1 X150.603 Y108.437 E14.63687
G1 X150.887 Y109.467 E14.67241
G1 X151.246 Y110.473 E14.70793
G1 X151.681 Y111.452 E14.74356
G1 X152.178 Y112.396 E14.77905
G1 X152.746 Y113.303 E14.81464
G1 X153.378 Y114.172 E14.85038
G1 X154.068 Y114.98 E14.88572
G1 X154.818 Y115.742 E14.92128
G1 X155.623 Y116.453 E14.957
G1 X156.468 Y117.096 E14.99232
G1 X157.372 Y117.684 E15.02819
G1 X158.299 Y118.197 E15.06343
G1 X159.274 Y118.651 E15.0992
G1 X160.268 Y119.026 E15.13453
G1 X161.294 Y119.33 E15.17012
G1 X162.337 Y119.559 E15.20564
G1 X163.398 Y119.717 E15.24132
G1 X164.464 Y119.792 E15.27686
G1 X165.528 Y119.792 E15.31225
G1 X166.594 Y119.717 E15.34779
G1 X167.656 Y119.563 E15.38349
G1 X168.698 Y119.334 E15.41897
G1 X169.723 Y119.03 E15.45453
G1 X170.718 Y118.651 E15.48994
G1 X171.693 Y118.201 E15.52566
G1 X172.62 Y117.688 E15.5609
G1 X173.524 Y117.1 E15.59676
G1 X174.369 Y116.457 E15.63208
G1 X175.174 Y115.746 E15.6678
G0 F3600 X175.314 Y115.604
G0 X174.605 Y114.906
M104 S200
G1 F2100 E14.8678
;MESH:NONMESH
G0 F600 X174.605 Y114.906 Z0.35
G0 F3600 X150.477 Y106.302
G0 X149.397 Y106.361
G0 X135.358 Y93.254
G0 X134.484 Y92.536
G0 X133.557 Y91.885
G0 X132.589 Y91.302
G0 X131.58 Y90.789
G0 X130.538 Y90.351
G0 X129.465 Y89.989
G0 X128.371 Y89.707
G0 X127.257 Y89.503
G0 X126.132 Y89.381
G0 X125.003 Y89.34
G0 X123.874 Y89.381
G0 X122.749 Y89.503
G0 X121.636 Y89.706
G0 X120.749 Y89.934
G0 X111.044 Y93.344
;TIME_ELAPSED:23.575813
;LAYER:1
M106 S255
;TYPE:SKIRT
G1 F2100 E15.6678
G1 F1800 X111.704 Y92.597 E15.69267
G1 X112.061 Y92.221 E15.7056
G1 X112.505 Y91.789 E15.72106
G1 X113.135 Y91.215 E15.74232
G1 X113.919 Y90.58 E15.76748
G1 X114.483 Y90.166 E15.78494
G1 X115.137 Y89.722 E15.80465
G1 X115.743 Y89.347 E15.82243
G1 X116.286 Y89.035 E15.83805
G1 X116.732 Y88.803 E15.85059
G1 X117.645 Y88.36 E15.87591
G1 X118.703 Y87.938 E15.90432
G1 X119.224 Y87.757 E15.91808
G1 X119.836 Y87.563 E15.93409
G1 X120.33 Y87.424 E15.9469
G1 X121.407 Y87.166 E15.97452
G1 X122.419 Y86.998 E16.00011
G1 X122.944 Y86.932 E16.01331
G1 X124.004 Y86.839 E16.03985
G1 X125.061 Y86.822 E16.06623
G1 X125.828 Y86.837 E16.08536
G1 X126.38 Y86.867 E16.09915
G1 X126.993 Y86.926 E16.11451
G1 X127.53 Y86.992 E16.12801
G1 X131.018 Y87.551 E16.21613
G1 X133.723 Y87.908 E16.28419
G1 X136.449 Y88.188 E16.35255
G1 X139.165 Y88.39 E16.42049
G1 X141.949 Y88.518 E16.49001
G1 X144.632 Y88.566 E16.55695
G1 X147.384 Y88.538 E16.6256
G1 X150.135 Y88.431 E16.69427
G1 X152.887 Y88.245 E16.76308
G1 X155.552 Y87.991 E16.82986
G1 X158.313 Y87.647 E16.89927
G1 X161.067 Y87.224 E16.96877
G1 X162.319 Y87.013 E17.00044
G1 X162.946 Y86.932 E17.01621
G1 X164.004 Y86.839 E17.04271
